; generated by PrusaSlicer 2.5.0 on 2022-11-19 at 18:22:17 UTC

; 

; external perimeters extrusion width = 0.45mm
; perimeters extrusion width = 0.45mm
; infill extrusion width = 0.50mm
; solid infill extrusion width = 0.45mm
; top infill extrusion width = 0.45mm
; first layer extrusion width = 0.42mm

M73 P0 R88
M201 X9000 Y9000 Z500 E10000 ; sets maximum accelerations, mm/sec^2
M203 X500 Y500 Z12 E120 ; sets maximum feedrates, mm / sec
M204 P2000 R1500 T2000 ; sets acceleration (P, T) and retract acceleration (R), mm/sec^2
M205 X10.00 Y10.00 Z0.20 E2.50 ; sets the jerk limits, mm/sec
M205 S0 T0 ; sets the minimum extruding and travel feed rate, mm/sec
M107
;TYPE:Custom
M862.3 P "MK2S" ; printer model check
M862.1 P0.4 ; nozzle diameter check
M115 U3.2.3 ; tell printer latest fw version
G90 ; use absolute coordinates
M83 ; extruder relative mode
M204 S2000 T1500 ; MK2 firmware only supports the old M204 format
M104 S215 ; set extruder temp
M140 S60 ; set bed temp
M190 S60 ; wait for bed temp
M109 S215 ; wait for extruder temp
G28 W ; home all without mesh bed level
G80 ; mesh bed leveling
G1 Y-3.0 F1000.0 ; go outside print area
G92 E0.0
G1 X60.0 E9.0  F1000.0 ; intro line
G1 X100.0 E12.5 F1000.0 ; intro line
G92 E0.0
G21 ; set units to millimeters
G90 ; use absolute coordinates
M83 ; use relative distances for extrusion
M900 K0.05 ; Filament gcode LA 1.5
M900 K30 ; Filament gcode LA 1.0
M107
;LAYER_CHANGE
;Z:0.2
;HEIGHT:0.2
;BEFORE_LAYER_CHANGE
G92 E0.0
;0.2


G1 E-.8 F2100
G1 Z.4 F10800
;AFTER_LAYER_CHANGE
;0.2
G1 X131.638 Y90.934
G1 Z.2
G1 E.8 F2100
M204 S500
;TYPE:Skirt/Brim
;WIDTH:0.42
G1 F1200
G1 X132.766 Y89.991 E.04612
G1 X133.903 Y89.746 E.03646
G1 X144.178 Y89.746 E.32217
G1 X145.596 Y90.139 E.04612
G1 X146.609 Y91.205 E.04612
G1 X146.932 Y92.5 E.04186
G1 X146.932 Y117.5 E.78386
G1 X146.54 Y118.917 E.04612
G1 X145.473 Y119.931 E.04612
G1 X144.178 Y120.254 E.04186
G1 X134.178 Y120.254 E.31354
G1 X132.692 Y119.818 E.04857
G1 X131.132 Y118.818 E.05809
G1 X130.151 Y117.723 E.04612
G1 X129.864 Y116.5 E.03938
G1 X129.87 Y112.323 E.13095
G1 X131.155 Y92.323 E.62838
G1 X131.618 Y90.991 E.04424
M204 S1000
G1 X131.984 Y91.127 F10800
M204 S500
G1 F1200
G1 X132.006 Y91.068 E.00195
G1 X133.105 Y90.261 E.04278
G1 X133.903 Y90.123 E.02539
G1 X144.178 Y90.123 E.32217
G1 X145.485 Y90.515 E.04278
G1 X146.362 Y91.56 E.04278
G1 X146.555 Y92.5 E.03008
G1 X146.555 Y117.5 E.78386
G1 X146.164 Y118.807 E.04278
G1 X145.118 Y119.683 E.04278
G1 X144.178 Y119.877 E.03008
G1 X134.178 Y119.877 E.31354
G1 X132.895 Y119.501 E.04192
G1 X131.336 Y118.501 E.05809
G1 X130.447 Y117.466 E.04278
G1 X130.242 Y116.5 E.03096
G1 X130.246 Y112.348 E.13019
G1 X131.531 Y92.348 E.62838
G1 X131.963 Y91.183 E.03895
M204 S1000
; printing object overhang.stl id:0 copy 0
;WIPE_START
G1 F8640
G1 X132.006 Y91.068 E-.0282
G1 X133.105 Y90.261 E-.31505
G1 X133.903 Y90.123 E-.18696
G1 X134.898 Y90.123 E-.22979
;WIPE_END
G1 E-.04 F2100
G1 Z.6 F10800
G1 X135.242 Y93.664
G1 Z.2
G1 E.8 F2100
M204 S500
;TYPE:Perimeter
;WIDTH:0.419999
G1 F1200
G1 X143.014 Y93.664 E.24368
G1 X143.014 Y116.336 E.71085
G1 X135.342 Y116.336 E.24054
G1 X135.342 Y116.279 E.0018
G1 X135.139 Y115.694 E.0194
G1 X134.775 Y115.518 E.01268
G1 X134.775 Y113.476 E.06402
G1 X135.155 Y113.286 E.01331
G1 X135.27 Y113.083 E.00731
G1 X135.342 Y112.721 E.01156
G1 X135.329 Y111.12 E.05022
G1 X135.196 Y110.774 E.01161
G1 X135.068 Y110.704 E.0046
G1 X135.068 Y108.296 E.07547
G1 X135.196 Y108.226 E.0046
G1 X135.29 Y108.032 E.00674
G1 X135.342 Y107.721 E.00988
G1 X135.342 Y106.279 E.04524
G1 X135.308 Y106.025 E.00804
G1 X135.162 Y105.914 E.00571
G1 X135.162 Y103.086 E.0887
G1 X135.308 Y102.975 E.00571
G1 X135.342 Y102.721 E.00804
G1 X135.342 Y101.279 E.04524
G1 X135.319 Y101.071 E.00656
G1 X135.223 Y100.994 E.00385
G1 X135.223 Y98.006 E.09368
G1 X135.319 Y97.929 E.00385
G1 X135.342 Y97.721 E.00656
G1 X135.342 Y96.279 E.04524
G1 X135.309 Y96.029 E.00788
G1 X135.242 Y95.979 E.00262
G1 X135.242 Y93.724 E.07069
M204 S1000
G1 X134.865 Y93.287 F10800
M204 S500
G1 F1200
G1 X143.391 Y93.287 E.26732
G1 X143.391 Y116.713 E.7345
G1 X134.965 Y116.713 E.26419
G1 X134.965 Y116.279 E.01362
G1 X134.843 Y115.928 E.01164
G1 X134.4 Y115.711 E.01548
G1 X134.4 Y113.289 E.07597
G1 X134.853 Y113.06 E.01591
G1 X134.922 Y112.938 E.00439
G1 X134.965 Y112.721 E.00694
G1 X134.957 Y111.183 E.04823
G1 X134.878 Y110.976 E.00696
G1 X134.691 Y110.873 E.00669
G1 X134.691 Y108.127 E.0861
G1 X134.878 Y108.024 E.00669
G1 X134.934 Y107.908 E.00404
G1 X134.965 Y107.721 E.00593
G1 X134.965 Y106.279 E.04524
G1 X134.944 Y106.126 E.00482
G1 X134.785 Y106.005 E.00626
G1 X134.785 Y102.995 E.09441
G1 X134.944 Y102.874 E.00626
G1 X134.965 Y102.721 E.00482
G1 X134.965 Y101.279 E.04524
G1 X134.951 Y101.154 E.00394
G1 X134.846 Y101.07 E.00422
G1 X134.846 Y97.93 E.09843
G1 X134.951 Y97.846 E.00422
G1 X134.965 Y97.721 E.00394
G1 X134.965 Y96.279 E.04524
G1 X134.945 Y96.129 E.00473
G1 X134.865 Y96.068 E.00315
G1 X134.865 Y93.347 E.08532
M204 S1000
G1 X134.488 Y92.91 F10800
M204 S500
;TYPE:External perimeter
G1 F1200
G1 X143.768 Y92.91 E.29097
G1 X143.768 Y117.09 E.75815
G1 X134.588 Y117.09 E.28783
G1 X134.588 Y116.279 E.02544
G1 X134.548 Y116.162 E.00388
G1 X134.4 Y116.09 E.00515
G1 X134.021 Y116.09 E.01187
G1 X134.021 Y112.91 E.09971
G1 X134.4 Y112.91 E.01187
G1 X134.551 Y112.834 E.0053
G1 X134.588 Y112.721 E.00373
G1 X134.588 Y111.279 E.04524
G1 X134.578 Y111.216 E.00198
G1 X134.4 Y111.09 E.00684
G1 X134.313 Y111.09 E.0027
G1 X134.313 Y107.91 E.09971
G1 X134.4 Y107.91 E.0027
G1 X134.559 Y107.822 E.0057
G1 X134.588 Y107.721 E.00329
G1 X134.586 Y106.253 E.04605
G1 X134.408 Y106.096 E.00743
G1 X134.408 Y102.904 E.10011
G1 X134.581 Y102.772 E.00681
G1 X134.588 Y102.721 E.00161
G1 X134.588 Y101.279 E.04524
G1 X134.469 Y101.145 E.0056
G1 X134.469 Y97.855 E.10318
G1 X134.588 Y97.721 E.0056
G1 X134.588 Y96.279 E.04524
G1 X134.582 Y96.229 E.00158
G1 X134.488 Y96.158 E.00368
G1 X134.488 Y92.97 E.09994
M204 S1000
G1 X134.837 Y93.107 F10800
;WIPE_START
G1 F8640
G1 X137.78 Y92.949 E-.76
;WIPE_END
G1 E-.04 F2100
G1 Z.6 F10800
G1 X142.135 Y93.777
G1 Z.2
G1 E.8 F2100
M204 S500
;TYPE:Solid infill
;WIDTH:0.421534
G1 F1200
G1 X142.731 Y94.373 E.02653
G1 X142.731 Y94.909 E.01686
G1 X141.77 Y93.947 E.04281
G1 X141.234 Y93.947 E.01686
G1 X142.731 Y95.444 E.06665
G1 X142.731 Y95.979 E.01686
G1 X140.699 Y93.947 E.09049
G1 X140.163 Y93.947 E.01686
G1 X142.731 Y96.515 E.11433
G1 X142.731 Y97.05 E.01686
G1 X139.628 Y93.947 E.13817
G1 X139.092 Y93.947 E.01686
G1 X142.731 Y97.586 E.16201
G1 X142.731 Y98.121 E.01686
G1 X138.557 Y93.947 E.18585
G1 X138.022 Y93.947 E.01686
G1 X142.731 Y98.657 E.20969
G1 X142.731 Y99.192 E.01686
G1 X137.486 Y93.947 E.23352
G1 X136.951 Y93.947 E.01686
G1 X142.731 Y99.728 E.25736
G1 X142.731 Y100.263 E.01686
G1 X136.415 Y93.947 E.2812
G1 X135.88 Y93.947 E.01686
G1 X142.731 Y100.798 E.30504
G1 X142.731 Y101.334 E.01686
G1 X135.525 Y94.128 E.32083
G1 X135.525 Y94.663 E.01686
G1 X142.731 Y101.869 E.32083
G1 X142.731 Y102.405 E.01686
G1 X135.525 Y95.199 E.32083
G1 X135.525 Y95.734 E.01686
G1 X142.731 Y102.94 E.32083
G1 X142.731 Y103.476 E.01686
G1 X135.625 Y96.37 E.31638
G1 X135.625 Y96.905 E.01686
G1 X142.731 Y104.011 E.31638
G1 X142.731 Y104.546 E.01686
G1 X135.625 Y97.44 E.31638
G1 X135.625 Y97.727 E.00901
G1 X135.6 Y97.951 E.0071
G1 X142.731 Y105.082 E.31749
G1 X142.731 Y105.617 E.01686
M73 P0 R87
G1 X135.506 Y98.392 E.32168
G1 X135.506 Y98.928 E.01686
G1 X142.731 Y106.153 E.32168
G1 X142.731 Y106.688 E.01686
G1 X135.506 Y99.463 E.32168
G1 X135.506 Y99.998 E.01686
G1 X142.731 Y107.224 E.32168
G1 X142.731 Y107.759 E.01686
G1 X135.506 Y100.534 E.32168
G1 X135.506 Y100.911 E.01186
G1 X135.592 Y100.98 E.00348
G1 X135.615 Y101.178 E.00627
G1 X142.731 Y108.295 E.31685
G1 X142.731 Y108.83 E.01686
G1 X135.625 Y101.724 E.31638
G1 X135.625 Y102.259 E.01686
G1 X142.731 Y109.365 E.31638
G1 X142.731 Y109.901 E.01686
G1 X135.617 Y102.787 E.31674
G1 X135.577 Y103.078 E.00925
G1 X135.461 Y103.166 E.0046
G1 X142.731 Y110.436 E.32369
G1 X142.731 Y110.972 E.01686
G1 X135.445 Y103.686 E.32439
G1 X135.445 Y104.221 E.01686
G1 X142.731 Y111.507 E.32439
G1 X142.731 Y112.043 E.01686
G1 X135.445 Y104.757 E.32439
G1 X135.445 Y105.292 E.01686
G1 X142.731 Y112.578 E.32439
G1 X142.731 Y113.114 E.01686
G1 X135.584 Y105.966 E.31822
G1 X135.615 Y106.114 E.00476
G1 X135.617 Y106.535 E.01325
G1 X142.731 Y113.649 E.31673
G1 X142.731 Y114.184 E.01686
G1 X135.621 Y107.074 E.31657
G1 X135.624 Y107.613 E.01697
G1 X142.731 Y114.72 E.31641
G1 X142.731 Y115.255 E.01686
G1 X135.566 Y108.09 E.31901
G1 X135.427 Y108.395 E.01054
G1 X135.368 Y108.427 E.00213
G1 X142.731 Y115.791 E.32783
G1 X142.731 Y116.053 E.00826
G1 X142.458 Y116.053 E.0086
G1 X135.35 Y108.945 E.31645
G1 X135.35 Y109.481 E.01686
G1 X141.923 Y116.053 E.29261
G1 X141.387 Y116.053 E.01686
G1 X135.35 Y110.016 E.26877
G1 X135.35 Y110.552 E.01686
G1 X140.852 Y116.053 E.24493
G1 X140.316 Y116.053 E.01686
G1 X135.625 Y111.362 E.20886
G1 X135.625 Y111.897 E.01686
G1 X139.781 Y116.053 E.18502
G1 X139.246 Y116.053 E.01686
G1 X135.625 Y112.433 E.16118
G1 X135.604 Y112.947 E.01621
G1 X138.71 Y116.053 E.13828
G1 X138.175 Y116.053 E.01686
G1 X135.453 Y113.331 E.12118
G1 X135.374 Y113.47 E.00503
G1 X135.162 Y113.576 E.00745
G1 X137.639 Y116.053 E.11028
G1 X137.104 Y116.053 E.01686
G1 X135.058 Y114.007 E.09108
G1 X135.058 Y114.543 E.01686
G1 X136.568 Y116.053 E.06724
G1 X136.033 Y116.053 E.01686
G1 X134.888 Y114.909 E.05095
M204 S1000
; stop printing object overhang.stl id:0 copy 0
M106 S84.15
;LAYER_CHANGE
;Z:0.25
;HEIGHT:0.05
;BEFORE_LAYER_CHANGE
G92 E0.0
;0.25


;WIPE_START
G1 F8640
G1 X136.033 Y116.053 E-.37372
G1 X136.568 Y116.053 E-.12363
G1 X135.764 Y115.249 E-.26265
;WIPE_END
G1 E-.04 F2100
G1 Z.6 F10800
;AFTER_LAYER_CHANGE
;0.25
G1 X135.764 Y120.254
G1 Z.25
G1 E.8 F2100
;TYPE:Skirt/Brim
;WIDTH:0.42
G1 F1800
G1 X134.178 Y120.254 E.01349
G1 X132.692 Y119.818 E.01318
G1 X131.132 Y118.818 E.01576
G1 X130.151 Y117.723 E.01251
G1 X129.864 Y116.5 E.01068
G1 X129.87 Y112.323 E.03553
G1 X131.155 Y92.323 E.17051
G1 X131.638 Y90.934 E.01251
G1 X132.766 Y89.991 E.01251
G1 X133.903 Y89.746 E.00989
G1 X144.178 Y89.746 E.08742
G1 X145.596 Y90.139 E.01251
G1 X146.609 Y91.205 E.01251
G1 X146.932 Y92.5 E.01136
G1 X146.932 Y117.5 E.21269
G1 X146.54 Y118.917 E.01251
G1 X145.473 Y119.931 E.01251
G1 X144.178 Y120.254 E.01136
G1 X135.824 Y120.254 E.07108
G1 X135.824 Y119.877 F10800
M73 P1 R87
G1 F1800
G1 X134.178 Y119.877 E.014
G1 X132.895 Y119.501 E.01138
G1 X131.336 Y118.501 E.01576
G1 X130.447 Y117.466 E.01161
G1 X130.242 Y116.5 E.0084
G1 X130.246 Y112.348 E.03533
G1 X131.531 Y92.348 E.17051
G1 X132.006 Y91.068 E.01161
G1 X133.105 Y90.261 E.01161
G1 X133.903 Y90.123 E.00689
G1 X144.178 Y90.123 E.08742
G1 X145.485 Y90.515 E.01161
G1 X146.362 Y91.56 E.01161
G1 X146.555 Y92.5 E.00816
G1 X146.555 Y117.5 E.21269
G1 X146.164 Y118.807 E.01161
G1 X145.118 Y119.683 E.01161
G1 X144.178 Y119.877 E.00816
G1 X135.884 Y119.877 E.07057
; printing object overhang.stl id:0 copy 0
;WIPE_START
G1 F8640
G1 X134.178 Y119.877 E-.39386
G1 X132.895 Y119.501 E-.30872
G1 X132.686 Y119.367 E-.05742
;WIPE_END
G1 E-.04 F2100
G1 Z.65 F10800
G1 X135.239 Y116.312
G1 Z.25
G1 E.8 F2100
M204 S300
;TYPE:Perimeter
;WIDTH:0.449999
G1 F1800
G1 X135.166 Y116.004 E.00289
G1 X135.003 Y115.763 E.00266
G1 X134.644 Y115.498 E.00408
G1 X134.184 Y115.396 E.0043
G1 X134.006 Y115.396 E.00162
G1 X134.006 Y113.604 E.01637
G1 X134.184 Y113.604 E.00162
G1 X134.644 Y113.502 E.0043
G1 X135.003 Y113.237 E.00408
G1 X135.175 Y112.977 E.00285
G1 X135.259 Y112.726 E.00242
G1 X135.282 Y112.505 E.00202
G1 X135.282 Y111.495 E.00923
G1 X135.26 Y111.278 E.00199
G1 X135.159 Y110.99 E.00279
G1 X134.88 Y110.645 E.00405
G1 X134.664 Y110.568 E.0021
G1 X134.664 Y108.432 E.01951
G1 X134.88 Y108.355 E.0021
G1 X135.089 Y108.126 E.00283
G1 X135.198 Y107.927 E.00207
G1 X135.282 Y107.505 E.00393
G1 X135.282 Y106.495 E.00923
G1 X135.198 Y106.073 E.00393
G1 X135.057 Y105.829 E.00257
G1 X134.877 Y105.74 E.00184
G1 X134.877 Y103.26 E.02264
G1 X135.057 Y103.171 E.00184
G1 X135.195 Y102.934 E.0025
G1 X135.282 Y102.505 E.00399
G1 X135.267 Y101.316 E.01086
G1 X135.12 Y100.922 E.00384
G1 X135.014 Y100.862 E.00112
G1 X135.014 Y98.138 E.02487
G1 X135.12 Y98.078 E.00112
G1 X135.224 Y97.856 E.00224
G1 X135.282 Y97.505 E.00324
G1 X135.282 Y96.495 E.00923
G1 X135.196 Y96.069 E.00397
G1 X135.057 Y95.976 E.00152
G1 X135.057 Y93.604 E.02167
G1 X143.075 Y93.604 E.07321
G1 X143.075 Y116.396 E.20813
G1 X135.259 Y116.396 E.07137
G1 X135.253 Y116.371 E.00024
M204 S1000
;WIPE_START
G1 F8640
G1 X135.166 Y116.004 E-.08692
G1 X135.003 Y115.763 E-.06724
G1 X134.644 Y115.498 E-.10307
G1 X134.184 Y115.396 E-.10883
G1 X134.006 Y115.396 E-.04107
G1 X134.006 Y113.868 E-.35287
;WIPE_END
G1 E-.04 F2100
G1 Z.65 F10800
G1 X134.275 Y113.144
G1 Z.25
G1 E.8 F2100
M204 S300
G1 F1800
G1 X134.46 Y113.104 E.00173
G1 X134.592 Y113.022 E.00142
G1 X134.779 Y112.788 E.00273
G1 X134.843 Y112.505 E.00265
G1 X134.843 Y111.495 E.00923
G1 X134.792 Y111.242 E.00236
G1 X134.601 Y110.985 E.00292
G1 X134.224 Y110.85 E.00366
G1 X134.224 Y108.15 E.02466
G1 X134.601 Y108.015 E.00366
G1 X134.769 Y107.808 E.00243
G1 X134.843 Y107.505 E.00285
G1 X134.83 Y106.364 E.01042
G1 X134.708 Y106.095 E.0027
G1 X134.438 Y105.961 E.00275
G1 X134.438 Y103.039 E.02669
G1 X134.708 Y102.905 E.00275
G1 X134.79 Y102.762 E.0015
G1 X134.843 Y102.505 E.00239
G1 X134.834 Y101.387 E.01021
G1 X134.746 Y101.151 E.0023
G1 X134.574 Y101.055 E.00179
G1 X134.574 Y97.945 E.02839
G1 X134.746 Y97.849 E.00179
G1 X134.808 Y97.716 E.00135
G1 X134.843 Y97.505 E.00195
G1 X134.843 Y96.495 E.00923
G1 X134.791 Y96.239 E.00238
G1 X134.618 Y96.124 E.0019
G1 X134.618 Y93.164 E.02703
G1 X143.514 Y93.164 E.08124
G1 X143.514 Y116.836 E.21615
G1 X134.843 Y116.836 E.07918
G1 X134.843 Y116.495 E.00311
G1 X134.773 Y116.2 E.00276
G1 X134.675 Y116.056 E.0016
G1 X134.46 Y115.896 E.00245
G1 X134.184 Y115.836 E.00258
G1 X133.566 Y115.836 E.00564
G1 X133.566 Y113.164 E.02439
G1 X134.216 Y113.157 E.00593
M204 S1000
G1 X134.184 Y112.725 F10800
M204 S300
;TYPE:External perimeter
G1 F1200
G1 X134.347 Y112.652 E.00164
G1 X134.403 Y112.505 E.00143
G1 X134.403 Y111.495 E.00923
G1 X134.365 Y111.37 E.00119
G1 X134.184 Y111.275 E.00187
G1 X133.785 Y111.275 E.00364
G1 X133.785 Y107.725 E.03242
G1 X134.184 Y107.725 E.00364
G1 X134.365 Y107.63 E.00187
G1 X134.403 Y107.505 E.00119
G1 X134.403 Y106.495 E.00923
G1 X134.386 Y106.409 E.0008
G1 X134.184 Y106.275 E.00222
G1 X133.998 Y106.275 E.00169
G1 X133.998 Y102.725 E.03242
G1 X134.184 Y102.725 E.00169
G1 X134.358 Y102.638 E.00178
G1 X134.403 Y102.505 E.00128
G1 X134.403 Y101.495 E.00923
G1 X134.371 Y101.38 E.00109
G1 X134.135 Y101.275 E.00236
G1 X134.135 Y97.774 E.03197
G1 X134.371 Y97.62 E.00257
G1 X134.403 Y97.505 E.00109
G1 X134.403 Y96.495 E.00923
G1 X134.386 Y96.409 E.00079
G1 X134.178 Y96.275 E.00226
G1 X134.178 Y92.725 E.03242
G1 X143.953 Y92.725 E.08926
G1 X143.953 Y117.275 E.22417
G1 X134.403 Y117.275 E.0872
G1 X134.403 Y116.495 E.00713
G1 X134.347 Y116.348 E.00143
G1 X134.184 Y116.275 E.00164
G1 X133.127 Y116.275 E.00965
G1 X133.127 Y112.725 E.03242
G1 X134.124 Y112.725 E.0091
M204 S1000
G1 X134.353 Y112.785 F10800
;WIPE_START
G1 F8640
G1 X134.347 Y112.652 E-.05439
G1 X134.403 Y112.505 E-.03615
G1 X134.403 Y111.495 E-.23338
G1 X134.365 Y111.37 E-.03003
G1 X134.184 Y111.275 E-.04727
G1 X133.785 Y111.275 E-.09203
G1 X133.785 Y110.12 E-.26675
;WIPE_END
G1 E-.04 F2100
G1 Z.65 F10800
G1 X142.943 Y115.359
G1 Z.25
G1 E.8 F2100
M204 S800
;TYPE:Solid infill
;WIDTH:0.458145
G1 F1800
G1 X142.235 Y116.067 E.00931
G1 X141.603 Y116.067 E.00588
G1 X142.745 Y114.924 E.01503
G1 X142.745 Y114.292 E.00588
G1 X140.97 Y116.067 E.02335
G1 X140.337 Y116.067 E.00588
G1 X142.745 Y113.659 E.03167
G1 X142.745 Y113.026 E.00588
G1 X139.704 Y116.067 E.04
G1 X139.072 Y116.067 E.00588
G1 X142.745 Y112.393 E.04832
G1 X142.745 Y111.761 E.00588
G1 X138.439 Y116.067 E.05664
G1 X137.806 Y116.067 E.00588
