; generated by PrusaSlicer 2.5.0 on 2022-11-19 at 20:23:28 UTC

; 

; external perimeters extrusion width = 0.45mm
; perimeters extrusion width = 0.45mm
; infill extrusion width = 0.45mm
; solid infill extrusion width = 0.45mm
; top infill extrusion width = 0.45mm
; first layer extrusion width = 0.42mm

M73 P0 R37
M201 X9000 Y9000 Z500 E10000 ; sets maximum accelerations, mm/sec^2
M203 X500 Y500 Z12 E120 ; sets maximum feedrates, mm / sec
M204 P2000 R1500 T2000 ; sets acceleration (P, T) and retract acceleration (R), mm/sec^2
M205 X10.00 Y10.00 Z0.20 E2.50 ; sets the jerk limits, mm/sec
M205 S0 T0 ; sets the minimum extruding and travel feed rate, mm/sec
M107
;TYPE:Custom
M862.3 P "MK2S" ; printer model check
M862.1 P0.4 ; nozzle diameter check
M115 U3.2.3 ; tell printer latest fw version
G90 ; use absolute coordinates
M83 ; extruder relative mode
M204 S2000 T1500 ; MK2 firmware only supports the old M204 format
M104 S215 ; set extruder temp
M140 S60 ; set bed temp
M190 S60 ; wait for bed temp
M109 S215 ; wait for extruder temp
G28 W ; home all without mesh bed level
G80 ; mesh bed leveling
G1 Y-3.0 F1000.0 ; go outside print area
G92 E0.0
G1 X60.0 E9.0  F1000.0 ; intro line
G1 X100.0 E12.5 F1000.0 ; intro line
G92 E0.0
G21 ; set units to millimeters
G90 ; use absolute coordinates
M83 ; use relative distances for extrusion
M900 K0.05 ; Filament gcode LA 1.5
M900 K30 ; Filament gcode LA 1.0
M107
;LAYER_CHANGE
;Z:0.2
;HEIGHT:0.2
;BEFORE_LAYER_CHANGE
G92 E0.0
;0.2


G1 E-.8 F2100
G1 Z.4 F10800
;AFTER_LAYER_CHANGE
;0.2
G1 X101.829 Y93.693
G1 Z.2
G1 E.8 F2100
M204 S1000
;TYPE:Skirt/Brim
;WIDTH:0.42
G1 F1200
G1 X102.874 Y92.817 E.04278
G1 X103.814 Y92.623 E.03008
G1 X146.4 Y92.623 E1.33525
G1 X147.707 Y93.015 E.04278
G1 X148.583 Y94.06 E.04278
G1 X148.777 Y95 E.03008
G1 X148.777 Y115 E.62709
G1 X148.385 Y116.307 E.04278
G1 X147.34 Y117.183 E.04278
G1 X146.4 Y117.377 E.03008
G1 X103.814 Y117.377 E1.33525
G1 X102.507 Y116.985 E.04278
G1 X101.631 Y115.94 E.04278
G1 X101.437 Y115 E.03008
G1 X101.437 Y95 E.62709
G1 X101.811 Y93.75 E.0409
; printing object resolution.stl id:0 copy 0
;WIPE_START
G1 F8640
G1 X102.874 Y92.817 E-.32671
G1 X103.814 Y92.623 E-.22155
G1 X104.731 Y92.623 E-.21174
;WIPE_END
G1 E-.04 F2100
G1 Z.6 F10800
G1 X104.601 Y95.787
G1 Z.2
G1 E.8 F2100
;TYPE:Perimeter
;WIDTH:0.419999
G1 F1200
G1 X145.613 Y95.787 E1.2859
G1 X145.613 Y114.213 E.57773
G1 X104.601 Y114.213 E1.2859
G1 X104.601 Y95.847 E.57585
G1 X104.224 Y95.41 F10800
;TYPE:External perimeter
G1 F1200
G1 X145.99 Y95.41 E1.30954
G1 X145.99 Y114.59 E.60137
G1 X104.224 Y114.59 E1.30954
M73 P1 R37
G1 X104.224 Y95.47 E.59949
G1 X104.62 Y95.467 F10800
;WIPE_START
G1 F8640
G1 X107.515 Y95.465 E-.76
;WIPE_END
G1 E-.04 F2100
G1 Z.6 F10800
G1 X145.5 Y96.668
G1 Z.2
G1 E.8 F2100
;TYPE:Solid infill
;WIDTH:0.422576
G1 F1200
G1 X144.902 Y96.07 E.0267
G1 X144.365 Y96.07 E.01695
G1 X145.33 Y97.035 E.04309
G1 X145.33 Y97.572 E.01695
G1 X143.828 Y96.07 E.06706
G1 X143.291 Y96.07 E.01695
G1 X145.33 Y98.109 E.09104
G1 X145.33 Y98.646 E.01695
G1 X142.754 Y96.07 E.11501
G1 X142.217 Y96.07 E.01695
G1 X145.33 Y99.183 E.13898
G1 X145.33 Y99.72 E.01695
G1 X141.68 Y96.07 E.16295
G1 X141.143 Y96.07 E.01695
G1 X145.33 Y100.257 E.18692
G1 X145.33 Y100.794 E.01695
G1 X140.606 Y96.07 E.21089
G1 X140.07 Y96.07 E.01695
G1 X145.33 Y101.33 E.23486
G1 X145.33 Y101.867 E.01695
G1 X139.533 Y96.07 E.25883
G1 X138.996 Y96.07 E.01695
G1 X145.33 Y102.404 E.2828
G1 X145.33 Y102.941 E.01695
G1 X138.459 Y96.07 E.30677
G1 X137.922 Y96.07 E.01695
G1 X145.33 Y103.478 E.33074
G1 X145.33 Y104.015 E.01695
G1 X137.385 Y96.07 E.35471
G1 X136.848 Y96.07 E.01695
G1 X145.33 Y104.552 E.37868
G1 X145.33 Y105.089 E.01695
G1 X136.311 Y96.07 E.40265
G1 X135.774 Y96.07 E.01695
G1 X145.33 Y105.626 E.42662
G1 X145.33 Y106.163 E.01695
G1 X135.237 Y96.07 E.45059
G1 X134.7 Y96.07 E.01695
G1 X145.33 Y106.7 E.47456
G1 X145.33 Y107.237 E.01695
G1 X134.163 Y96.07 E.49853
G1 X133.627 Y96.07 E.01695
G1 X145.33 Y107.773 E.5225
G1 X145.33 Y108.31 E.01695
G1 X133.09 Y96.07 E.54647
G1 X132.553 Y96.07 E.01695
G1 X145.33 Y108.847 E.57044
G1 X145.33 Y109.384 E.01695
G1 X132.016 Y96.07 E.59441
G1 X131.479 Y96.07 E.01695
G1 X145.33 Y109.921 E.61838
G1 X145.33 Y110.458 E.01695
G1 X130.942 Y96.07 E.64235
G1 X130.405 Y96.07 E.01695
G1 X145.33 Y110.995 E.66632
G1 X145.33 Y111.532 E.01695
G1 X129.868 Y96.07 E.69029
G1 X129.331 Y96.07 E.01695
G1 X145.33 Y112.069 E.71426
G1 X145.33 Y112.606 E.01695
M73 P2 R37
G1 X128.794 Y96.07 E.73823
G1 X128.257 Y96.07 E.01695
G1 X145.33 Y113.143 E.76221
G1 X145.33 Y113.68 E.01695
G1 X127.72 Y96.07 E.78618
G1 X127.184 Y96.07 E.01695
G1 X145.044 Y113.93 E.79736
G1 X144.507 Y113.93 E.01695
G1 X126.647 Y96.07 E.79736
G1 X126.11 Y96.07 E.01695
G1 X143.97 Y113.93 E.79736
G1 X143.433 Y113.93 E.01695
G1 X125.573 Y96.07 E.79736
G1 X125.036 Y96.07 E.01695
M73 P2 R36
G1 X142.896 Y113.93 E.79736
G1 X142.359 Y113.93 E.01695
G1 X124.499 Y96.07 E.79736
G1 X123.962 Y96.07 E.01695
G1 X141.822 Y113.93 E.79736
G1 X141.285 Y113.93 E.01695
G1 X123.425 Y96.07 E.79736
G1 X122.888 Y96.07 E.01695
G1 X140.749 Y113.93 E.79736
G1 X140.212 Y113.93 E.01695
G1 X122.351 Y96.07 E.79736
G1 X121.814 Y96.07 E.01695
G1 X139.675 Y113.93 E.79736
G1 X139.138 Y113.93 E.01695
G1 X121.278 Y96.07 E.79736
G1 X120.741 Y96.07 E.01695
G1 X138.601 Y113.93 E.79736
G1 X138.064 Y113.93 E.01695
G1 X120.204 Y96.07 E.79736
G1 X119.667 Y96.07 E.01695
G1 X137.527 Y113.93 E.79736
G1 X136.99 Y113.93 E.01695
M73 P3 R36
G1 X119.13 Y96.07 E.79736
G1 X118.593 Y96.07 E.01695
G1 X136.453 Y113.93 E.79736
G1 X135.916 Y113.93 E.01695
G1 X118.056 Y96.07 E.79736
G1 X117.519 Y96.07 E.01695
G1 X135.379 Y113.93 E.79736
G1 X134.842 Y113.93 E.01695
G1 X116.982 Y96.07 E.79736
G1 X116.445 Y96.07 E.01695
G1 X134.306 Y113.93 E.79736
G1 X133.769 Y113.93 E.01695
G1 X115.908 Y96.07 E.79736
G1 X115.371 Y96.07 E.01695
G1 X133.232 Y113.93 E.79736
G1 X132.695 Y113.93 E.01695
G1 X114.835 Y96.07 E.79736
G1 X114.298 Y96.07 E.01695
G1 X132.158 Y113.93 E.79736
G1 X131.621 Y113.93 E.01695
G1 X113.761 Y96.07 E.79736
G1 X113.224 Y96.07 E.01695
G1 X131.084 Y113.93 E.79736
G1 X130.547 Y113.93 E.01695
G1 X112.687 Y96.07 E.79736
G1 X112.15 Y96.07 E.01695
G1 X130.01 Y113.93 E.79736
G1 X129.473 Y113.93 E.01695
G1 X111.613 Y96.07 E.79736
G1 X111.076 Y96.07 E.01695
G1 X128.936 Y113.93 E.79736
G1 X128.399 Y113.93 E.01695
G1 X110.539 Y96.07 E.79736
G1 X110.002 Y96.07 E.01695
G1 X127.863 Y113.93 E.79736
G1 X127.326 Y113.93 E.01695
M73 P4 R36
G1 X109.465 Y96.07 E.79736
G1 X108.928 Y96.07 E.01695
G1 X126.789 Y113.93 E.79736
G1 X126.252 Y113.93 E.01695
G1 X108.392 Y96.07 E.79736
G1 X107.855 Y96.07 E.01695
G1 X125.715 Y113.93 E.79736
G1 X125.178 Y113.93 E.01695
G1 X107.318 Y96.07 E.79736
G1 X106.781 Y96.07 E.01695
G1 X124.641 Y113.93 E.79736
G1 X124.104 Y113.93 E.01695
G1 X106.244 Y96.07 E.79736
G1 X105.707 Y96.07 E.01695
G1 X123.567 Y113.93 E.79736
G1 X123.03 Y113.93 E.01695
G1 X105.17 Y96.07 E.79736
G1 X104.884 Y96.07 E.00903
G1 X104.884 Y96.321 E.00791
G1 X122.493 Y113.93 E.78617
G1 X121.956 Y113.93 E.01695
G1 X104.884 Y96.858 E.7622
G1 X104.884 Y97.394 E.01695
G1 X121.42 Y113.93 E.73823
G1 X120.883 Y113.93 E.01695
G1 X104.884 Y97.931 E.71426
G1 X104.884 Y98.468 E.01695
G1 X120.346 Y113.93 E.69029
G1 X119.809 Y113.93 E.01695
G1 X104.884 Y99.005 E.66632
G1 X104.884 Y99.542 E.01695
G1 X119.272 Y113.93 E.64235
G1 X118.735 Y113.93 E.01695
G1 X104.884 Y100.079 E.61838
G1 X104.884 Y100.616 E.01695
G1 X118.198 Y113.93 E.59441
G1 X117.661 Y113.93 E.01695
M73 P5 R35
G1 X104.884 Y101.153 E.57044
G1 X104.884 Y101.69 E.01695
G1 X117.124 Y113.93 E.54647
G1 X116.587 Y113.93 E.01695
G1 X104.884 Y102.227 E.5225
G1 X104.884 Y102.764 E.01695
G1 X116.05 Y113.93 E.49853
G1 X115.514 Y113.93 E.01695
G1 X104.884 Y103.3 E.47456
G1 X104.884 Y103.837 E.01695
G1 X114.977 Y113.93 E.45059
G1 X114.44 Y113.93 E.01695
G1 X104.884 Y104.374 E.42662
G1 X104.884 Y104.911 E.01695
G1 X113.903 Y113.93 E.40265
G1 X113.366 Y113.93 E.01695
G1 X104.884 Y105.448 E.37867
G1 X104.884 Y105.985 E.01695
G1 X112.829 Y113.93 E.3547
G1 X112.292 Y113.93 E.01695
G1 X104.884 Y106.522 E.33073
G1 X104.884 Y107.059 E.01695
G1 X111.755 Y113.93 E.30676
G1 X111.218 Y113.93 E.01695
G1 X104.884 Y107.596 E.28279
G1 X104.884 Y108.133 E.01695
G1 X110.681 Y113.93 E.25882
G1 X110.144 Y113.93 E.01695
G1 X104.884 Y108.67 E.23485
G1 X104.884 Y109.207 E.01695
G1 X109.607 Y113.93 E.21088
G1 X109.071 Y113.93 E.01695
G1 X104.884 Y109.743 E.18691
G1 X104.884 Y110.28 E.01695
G1 X108.534 Y113.93 E.16294
G1 X107.997 Y113.93 E.01695
G1 X104.884 Y110.817 E.13897
G1 X104.884 Y111.354 E.01695
G1 X107.46 Y113.93 E.115
G1 X106.923 Y113.93 E.01695
G1 X104.884 Y111.891 E.09103
G1 X104.884 Y112.428 E.01695
G1 X106.386 Y113.93 E.06706
G1 X105.849 Y113.93 E.01695
G1 X104.884 Y112.965 E.04309
G1 X104.884 Y113.502 E.01695
G1 X105.482 Y114.1 E.0267
; stop printing object resolution.stl id:0 copy 0
M106 S84.15
;LAYER_CHANGE
;Z:0.35
;HEIGHT:0.15
;BEFORE_LAYER_CHANGE
G92 E0.0
;0.35


;WIPE_START
G1 F8640
G1 X104.884 Y113.502 E-.19526
G1 X104.884 Y112.965 E-.12397
G1 X105.849 Y113.93 E-.31517
G1 X106.386 Y113.93 E-.12398
G1 X106.381 Y113.925 E-.00162
;WIPE_END
G1 E-.04 F2100
G1 Z.6 F10800
;AFTER_LAYER_CHANGE
;0.35
G1 X106.381 Y117.377
G1 Z.35
G1 E.8 F2100
;TYPE:Skirt/Brim
;WIDTH:0.42
G1 F3000
G1 X103.814 Y117.377 E.06208
G1 X102.507 Y116.985 E.033
G1 X101.631 Y115.94 E.033
G1 X101.437 Y115 E.02321
G1 X101.437 Y95 E.4837
G1 X101.829 Y93.693 E.033
G1 X102.874 Y92.817 E.033
G1 X103.814 Y92.623 E.02321
G1 X146.4 Y92.623 E1.02994
G1 X147.707 Y93.015 E.033
G1 X148.583 Y94.06 E.033
G1 X148.777 Y95 E.02321
G1 X148.777 Y115 E.4837
G1 X148.385 Y116.307 E.033
G1 X147.34 Y117.183 E.033
G1 X146.4 Y117.377 E.02321
G1 X106.441 Y117.377 E.9664
; printing object resolution.stl id:0 copy 0
;WIPE_START
G1 F8640
G1 X103.814 Y117.377 E-.60658
G1 X103.178 Y117.186 E-.15342
;WIPE_END
G1 E-.04 F2100
G1 Z.75 F10800
G1 X104.831 Y114.357
G1 Z.35
G1 E.8 F2100
M204 S800
;TYPE:Perimeter
;WIDTH:0.449999
G1 F3000
G1 X104.831 Y95.643 E.48762
G1 X145.757 Y95.643 E1.06635
G1 X145.757 Y114.357 E.48762
G1 X104.891 Y114.357 E1.06479
M204 S1000
G1 X104.413 Y114.775 F10800
M204 S800
;TYPE:External perimeter
G1 F2400
G1 X104.413 Y95.225 E.50939
G1 X146.175 Y95.225 E1.08813
G1 X146.175 Y114.775 E.50939
G1 X104.473 Y114.775 E1.08656
M204 S1000
G1 X104.561 Y114.403 F10800
;WIPE_START
G1 F8640
G1 X104.463 Y111.484 E-.76
;WIPE_END
G1 E-.04 F2100
G1 Z.75 F10800
G1 X144.785 Y114.232
G1 Z.35
G1 E.8 F2100
M204 S2000
;TYPE:Solid infill
;WIDTH:0.450956
G1 F3000
G1 X145.444 Y113.573 E.02432
G1 X145.444 Y112.981 E.01547
G1 X144.381 Y114.044 E.03925
G1 X143.789 Y114.044 E.01547
G1 X145.444 Y112.389 E.06113
G1 X145.444 Y111.797 E.01547
G1 X143.197 Y114.044 E.083
G1 X142.604 Y114.044 E.01547
M73 P6 R35
G1 X145.444 Y111.204 E.10487
G1 X145.444 Y110.612 E.01547
G1 X142.012 Y114.044 E.12674
G1 X141.42 Y114.044 E.01547
G1 X145.444 Y110.02 E.14862
G1 X145.444 Y109.428 E.01547
G1 X140.828 Y114.044 E.17049
G1 X140.235 Y114.044 E.01547
G1 X145.444 Y108.835 E.19236
G1 X145.444 Y108.243 E.01547
G1 X139.643 Y114.044 E.21423
G1 X139.051 Y114.044 E.01547
G1 X145.444 Y107.651 E.23611
G1 X145.444 Y107.059 E.01547
G1 X138.459 Y114.044 E.25798
G1 X137.867 Y114.044 E.01547
G1 X145.444 Y106.467 E.27985
G1 X145.444 Y105.874 E.01547
G1 X137.274 Y114.044 E.30172
G1 X136.682 Y114.044 E.01547
G1 X145.444 Y105.282 E.3236
G1 X145.444 Y104.69 E.01547
G1 X136.09 Y114.044 E.34547
G1 X135.498 Y114.044 E.01547
G1 X145.444 Y104.098 E.36734
G1 X145.444 Y103.505 E.01547
G1 X134.905 Y114.044 E.38921
G1 X134.313 Y114.044 E.01547
G1 X145.444 Y102.913 E.41109
G1 X145.444 Y102.321 E.01547
G1 X133.721 Y114.044 E.43296
G1 X133.129 Y114.044 E.01547
G1 X145.444 Y101.729 E.45483
G1 X145.444 Y101.137 E.01547
G1 X132.537 Y114.044 E.4767
G1 X131.944 Y114.044 E.01547
G1 X145.444 Y100.544 E.49858
G1 X145.444 Y99.952 E.01547
G1 X131.352 Y114.044 E.52045
G1 X130.76 Y114.044 E.01547
G1 X145.444 Y99.36 E.54232
G1 X145.444 Y98.768 E.01547
G1 X130.168 Y114.044 E.56419
G1 X129.575 Y114.044 E.01547
G1 X145.444 Y98.175 E.58607
G1 X145.444 Y97.583 E.01547
G1 X128.983 Y114.044 E.60794
G1 X128.391 Y114.044 E.01547
G1 X145.444 Y96.991 E.62981
G1 X145.444 Y96.399 E.01547
G1 X127.799 Y114.044 E.65168
G1 X127.206 Y114.044 E.01547
G1 X145.294 Y95.956 E.66803
G1 X144.702 Y95.956 E.01547
G1 X126.614 Y114.044 E.66803
G1 X126.022 Y114.044 E.01547
G1 X144.11 Y95.956 E.66803
G1 X143.518 Y95.956 E.01547
G1 X125.43 Y114.044 E.66803
G1 X124.838 Y114.044 E.01547
G1 X142.925 Y95.956 E.66803
G1 X142.333 Y95.956 E.01547
G1 X124.245 Y114.044 E.66803
G1 X123.653 Y114.044 E.01547
G1 X141.741 Y95.956 E.66803
G1 X141.149 Y95.956 E.01547
G1 X123.061 Y114.044 E.66803
G1 X122.469 Y114.044 E.01547
G1 X140.556 Y95.956 E.66803
G1 X139.964 Y95.956 E.01547
G1 X121.876 Y114.044 E.66803
G1 X121.284 Y114.044 E.01547
G1 X139.372 Y95.956 E.66803
G1 X138.78 Y95.956 E.01547
G1 X120.692 Y114.044 E.66803
G1 X120.1 Y114.044 E.01547
G1 X138.187 Y95.956 E.66803
G1 X137.595 Y95.956 E.01547
G1 X119.508 Y114.044 E.66803
G1 X118.915 Y114.044 E.01547
G1 X137.003 Y95.956 E.66803
G1 X136.411 Y95.956 E.01547
G1 X118.323 Y114.044 E.66803
G1 X117.731 Y114.044 E.01547
G1 X135.819 Y95.956 E.66803
G1 X135.226 Y95.956 E.01547
G1 X117.139 Y114.044 E.66803
G1 X116.546 Y114.044 E.01547
G1 X134.634 Y95.956 E.66803
G1 X134.042 Y95.956 E.01547
G1 X115.954 Y114.044 E.66803
G1 X115.362 Y114.044 E.01547
G1 X133.45 Y95.956 E.66803
G1 X132.857 Y95.956 E.01547
G1 X114.77 Y114.044 E.66803
G1 X114.178 Y114.044 E.01547
G1 X132.265 Y95.956 E.66803
G1 X131.673 Y95.956 E.01547
G1 X113.585 Y114.044 E.66803
G1 X112.993 Y114.044 E.01547
G1 X131.081 Y95.956 E.66803
G1 X130.489 Y95.956 E.01547
G1 X112.401 Y114.044 E.66803
G1 X111.809 Y114.044 E.01547
M73 P7 R35
G1 X129.896 Y95.956 E.66803
G1 X129.304 Y95.956 E.01547
G1 X111.216 Y114.044 E.66803
G1 X110.624 Y114.044 E.01547
G1 X128.712 Y95.956 E.66803
G1 X128.12 Y95.956 E.01547
G1 X110.032 Y114.044 E.66803
G1 X109.44 Y114.044 E.01547
G1 X127.527 Y95.956 E.66803
G1 X126.935 Y95.956 E.01547
G1 X108.848 Y114.044 E.66803
G1 X108.255 Y114.044 E.01547
G1 X126.343 Y95.956 E.66803
G1 X125.751 Y95.956 E.01547
G1 X107.663 Y114.044 E.66803
G1 X107.071 Y114.044 E.01547
G1 X125.159 Y95.956 E.66803
G1 X124.566 Y95.956 E.01547
G1 X106.479 Y114.044 E.66803
G1 X105.886 Y114.044 E.01547
G1 X123.974 Y95.956 E.66803
G1 X123.382 Y95.956 E.01547
G1 X105.294 Y114.044 E.66803
G1 X105.145 Y114.044 E.0039
G1 X105.145 Y113.601 E.01156
G1 X122.79 Y95.956 E.65168
G1 X122.197 Y95.956 E.01547
G1 X105.145 Y113.009 E.62981
G1 X105.145 Y112.417 E.01547
G1 X121.605 Y95.956 E.60793
G1 X121.013 Y95.956 E.01547
G1 X105.145 Y111.824 E.58606
G1 X105.145 Y111.232 E.01547
G1 X120.421 Y95.956 E.56419
G1 X119.829 Y95.956 E.01547
G1 X105.145 Y110.64 E.54232
G1 X105.145 Y110.048 E.01547
G1 X119.236 Y95.956 E.52044
G1 X118.644 Y95.956 E.01547
G1 X105.145 Y109.456 E.49857
G1 X105.145 Y108.863 E.01547
G1 X118.052 Y95.956 E.4767
G1 X117.46 Y95.956 E.01547
G1 X105.145 Y108.271 E.45483
G1 X105.145 Y107.679 E.01547
G1 X116.867 Y95.956 E.43295
G1 X116.275 Y95.956 E.01547
G1 X105.145 Y107.087 E.41108
G1 X105.145 Y106.494 E.01547
G1 X115.683 Y95.956 E.38921
G1 X115.091 Y95.956 E.01547
G1 X105.145 Y105.902 E.36734
G1 X105.145 Y105.31 E.01547
G1 X114.498 Y95.956 E.34546
G1 X113.906 Y95.956 E.01547
G1 X105.145 Y104.718 E.32359
G1 X105.145 Y104.126 E.01547
G1 X113.314 Y95.956 E.30172
G1 X112.722 Y95.956 E.01547
G1 X105.145 Y103.533 E.27985
G1 X105.145 Y102.941 E.01547
G1 X112.13 Y95.956 E.25797
G1 X111.537 Y95.956 E.01547
G1 X105.145 Y102.349 E.2361
G1 X105.145 Y101.757 E.01547
M73 P7 R34
G1 X110.945 Y95.956 E.21423
G1 X110.353 Y95.956 E.01547
G1 X105.145 Y101.164 E.19236
G1 X105.145 Y100.572 E.01547
G1 X109.761 Y95.956 E.17048
G1 X109.168 Y95.956 E.01547
G1 X105.145 Y99.98 E.14861
G1 X105.145 Y99.388 E.01547
G1 X108.576 Y95.956 E.12674
G1 X107.984 Y95.956 E.01547
G1 X105.145 Y98.796 E.10487
G1 X105.145 Y98.203 E.01547
G1 X107.392 Y95.956 E.08299
G1 X106.8 Y95.956 E.01547
