; generated by PrusaSlicer 2.5.0 on 2022-11-19 at 20:23:38 UTC

; 

; external perimeters extrusion width = 0.60mm
; perimeters extrusion width = 0.43mm
; infill extrusion width = 0.45mm
; solid infill extrusion width = 0.70mm
; top infill extrusion width = 0.45mm
; first layer extrusion width = 0.42mm

M73 P0 R16
M201 X9000 Y9000 Z500 E10000 ; sets maximum accelerations, mm/sec^2
M203 X500 Y500 Z12 E120 ; sets maximum feedrates, mm / sec
M204 P2000 R1500 T2000 ; sets acceleration (P, T) and retract acceleration (R), mm/sec^2
M205 X10.00 Y10.00 Z0.20 E2.50 ; sets the jerk limits, mm/sec
M205 S0 T0 ; sets the minimum extruding and travel feed rate, mm/sec
M107
;TYPE:Custom
M862.3 P "MK2S" ; printer model check
M862.1 P0.4 ; nozzle diameter check
M115 U3.2.3 ; tell printer latest fw version
G90 ; use absolute coordinates
M83 ; extruder relative mode
M204 S2000 T1500 ; MK2 firmware only supports the old M204 format
M104 S215 ; set extruder temp
M140 S60 ; set bed temp
M190 S60 ; wait for bed temp
M109 S215 ; wait for extruder temp
G28 W ; home all without mesh bed level
G80 ; mesh bed leveling
G1 Y-3.0 F1000.0 ; go outside print area
G92 E0.0
G1 X60.0 E9.0  F1000.0 ; intro line
G1 X100.0 E12.5 F1000.0 ; intro line
G92 E0.0
G21 ; set units to millimeters
G90 ; use absolute coordinates
M83 ; use relative distances for extrusion
M900 K0.05 ; Filament gcode LA 1.5
M900 K30 ; Filament gcode LA 1.0
M107
;LAYER_CHANGE
;Z:0.2
;HEIGHT:0.2
;BEFORE_LAYER_CHANGE
G92 E0.0
;0.2


G1 E-.8 F2100
G1 Z.4 F10800
;AFTER_LAYER_CHANGE
;0.2
G1 X101.829 Y93.693
G1 Z.2
G1 E.8 F2100
M204 S1000
;TYPE:Skirt/Brim
;WIDTH:0.42
G1 F1200
G1 X102.874 Y92.817 E.04278
G1 X103.814 Y92.623 E.03008
G1 X146.4 Y92.623 E1.33525
G1 X147.707 Y93.015 E.04278
G1 X148.583 Y94.06 E.04278
G1 X148.777 Y95 E.03008
G1 X148.777 Y115 E.62709
G1 X148.385 Y116.307 E.04278
M73 P1 R16
G1 X147.34 Y117.183 E.04278
G1 X146.4 Y117.377 E.03008
G1 X103.814 Y117.377 E1.33525
G1 X102.507 Y116.985 E.04278
G1 X101.631 Y115.94 E.04278
G1 X101.437 Y115 E.03008
G1 X101.437 Y95 E.62709
G1 X101.811 Y93.75 E.0409
; printing object resolution.stl id:0 copy 0
;WIPE_START
G1 F8640
G1 X102.874 Y92.817 E-.32671
G1 X103.814 Y92.623 E-.22155
G1 X104.731 Y92.623 E-.21174
;WIPE_END
G1 E-.04 F2100
G1 Z.6 F10800
G1 X104.601 Y95.787
G1 Z.2
G1 E.8 F2100
;TYPE:Perimeter
;WIDTH:0.419999
G1 F1200
G1 X145.613 Y95.787 E1.2859
G1 X145.613 Y114.213 E.57773
G1 X104.601 Y114.213 E1.2859
G1 X104.601 Y95.847 E.57585
G1 X104.224 Y95.41 F10800
;TYPE:External perimeter
M73 P2 R16
G1 F1200
G1 X145.99 Y95.41 E1.30954
G1 X145.99 Y114.59 E.60137
G1 X104.224 Y114.59 E1.30954
G1 X104.224 Y95.47 E.59949
G1 X104.62 Y95.467 F10800
;WIPE_START
G1 F8640
G1 X107.515 Y95.465 E-.76
;WIPE_END
G1 E-.04 F2100
G1 Z.6 F10800
G1 X145.5 Y96.668
G1 Z.2
G1 E.8 F2100
;TYPE:Solid infill
;WIDTH:0.422576
G1 F1200
G1 X144.902 Y96.07 E.0267
G1 X144.365 Y96.07 E.01695
G1 X145.33 Y97.035 E.04309
G1 X145.33 Y97.572 E.01695
G1 X143.828 Y96.07 E.06706
G1 X143.291 Y96.07 E.01695
G1 X145.33 Y98.109 E.09104
G1 X145.33 Y98.646 E.01695
G1 X142.754 Y96.07 E.11501
G1 X142.217 Y96.07 E.01695
G1 X145.33 Y99.183 E.13898
G1 X145.33 Y99.72 E.01695
G1 X141.68 Y96.07 E.16295
G1 X141.143 Y96.07 E.01695
G1 X145.33 Y100.257 E.18692
G1 X145.33 Y100.794 E.01695
G1 X140.606 Y96.07 E.21089
G1 X140.07 Y96.07 E.01695
G1 X145.33 Y101.33 E.23486
G1 X145.33 Y101.867 E.01695
G1 X139.533 Y96.07 E.25883
G1 X138.996 Y96.07 E.01695
G1 X145.33 Y102.404 E.2828
G1 X145.33 Y102.941 E.01695
M73 P3 R16
G1 X138.459 Y96.07 E.30677
G1 X137.922 Y96.07 E.01695
G1 X145.33 Y103.478 E.33074
G1 X145.33 Y104.015 E.01695
G1 X137.385 Y96.07 E.35471
G1 X136.848 Y96.07 E.01695
G1 X145.33 Y104.552 E.37868
G1 X145.33 Y105.089 E.01695
G1 X136.311 Y96.07 E.40265
G1 X135.774 Y96.07 E.01695
G1 X145.33 Y105.626 E.42662
G1 X145.33 Y106.163 E.01695
G1 X135.237 Y96.07 E.45059
G1 X134.7 Y96.07 E.01695
G1 X145.33 Y106.7 E.47456
G1 X145.33 Y107.237 E.01695
G1 X134.163 Y96.07 E.49853
G1 X133.627 Y96.07 E.01695
G1 X145.33 Y107.773 E.5225
G1 X145.33 Y108.31 E.01695
G1 X133.09 Y96.07 E.54647
G1 X132.553 Y96.07 E.01695
G1 X145.33 Y108.847 E.57044
G1 X145.33 Y109.384 E.01695
G1 X132.016 Y96.07 E.59441
G1 X131.479 Y96.07 E.01695
G1 X145.33 Y109.921 E.61838
G1 X145.33 Y110.458 E.01695
M73 P4 R16
G1 X130.942 Y96.07 E.64235
G1 X130.405 Y96.07 E.01695
G1 X145.33 Y110.995 E.66632
G1 X145.33 Y111.532 E.01695
G1 X129.868 Y96.07 E.69029
G1 X129.331 Y96.07 E.01695
G1 X145.33 Y112.069 E.71426
G1 X145.33 Y112.606 E.01695
G1 X128.794 Y96.07 E.73823
G1 X128.257 Y96.07 E.01695
G1 X145.33 Y113.143 E.76221
G1 X145.33 Y113.68 E.01695
G1 X127.72 Y96.07 E.78618
G1 X127.184 Y96.07 E.01695
G1 X145.044 Y113.93 E.79736
G1 X144.507 Y113.93 E.01695
M73 P5 R16
G1 X126.647 Y96.07 E.79736
G1 X126.11 Y96.07 E.01695
M73 P5 R15
G1 X143.97 Y113.93 E.79736
G1 X143.433 Y113.93 E.01695
G1 X125.573 Y96.07 E.79736
G1 X125.036 Y96.07 E.01695
G1 X142.896 Y113.93 E.79736
G1 X142.359 Y113.93 E.01695
G1 X124.499 Y96.07 E.79736
G1 X123.962 Y96.07 E.01695
G1 X141.822 Y113.93 E.79736
G1 X141.285 Y113.93 E.01695
G1 X123.425 Y96.07 E.79736
G1 X122.888 Y96.07 E.01695
G1 X140.749 Y113.93 E.79736
G1 X140.212 Y113.93 E.01695
M73 P6 R15
G1 X122.351 Y96.07 E.79736
G1 X121.814 Y96.07 E.01695
G1 X139.675 Y113.93 E.79736
G1 X139.138 Y113.93 E.01695
G1 X121.278 Y96.07 E.79736
G1 X120.741 Y96.07 E.01695
G1 X138.601 Y113.93 E.79736
G1 X138.064 Y113.93 E.01695
G1 X120.204 Y96.07 E.79736
G1 X119.667 Y96.07 E.01695
G1 X137.527 Y113.93 E.79736
G1 X136.99 Y113.93 E.01695
G1 X119.13 Y96.07 E.79736
G1 X118.593 Y96.07 E.01695
G1 X136.453 Y113.93 E.79736
G1 X135.916 Y113.93 E.01695
M73 P7 R15
G1 X118.056 Y96.07 E.79736
G1 X117.519 Y96.07 E.01695
G1 X135.379 Y113.93 E.79736
G1 X134.842 Y113.93 E.01695
G1 X116.982 Y96.07 E.79736
G1 X116.445 Y96.07 E.01695
G1 X134.306 Y113.93 E.79736
G1 X133.769 Y113.93 E.01695
G1 X115.908 Y96.07 E.79736
G1 X115.371 Y96.07 E.01695
G1 X133.232 Y113.93 E.79736
G1 X132.695 Y113.93 E.01695
G1 X114.835 Y96.07 E.79736
G1 X114.298 Y96.07 E.01695
G1 X132.158 Y113.93 E.79736
G1 X131.621 Y113.93 E.01695
M73 P8 R15
G1 X113.761 Y96.07 E.79736
G1 X113.224 Y96.07 E.01695
G1 X131.084 Y113.93 E.79736
G1 X130.547 Y113.93 E.01695
G1 X112.687 Y96.07 E.79736
G1 X112.15 Y96.07 E.01695
G1 X130.01 Y113.93 E.79736
G1 X129.473 Y113.93 E.01695
G1 X111.613 Y96.07 E.79736
G1 X111.076 Y96.07 E.01695
G1 X128.936 Y113.93 E.79736
G1 X128.399 Y113.93 E.01695
G1 X110.539 Y96.07 E.79736
G1 X110.002 Y96.07 E.01695
G1 X127.863 Y113.93 E.79736
G1 X127.326 Y113.93 E.01695
M73 P9 R15
G1 X109.465 Y96.07 E.79736
G1 X108.928 Y96.07 E.01695
G1 X126.789 Y113.93 E.79736
G1 X126.252 Y113.93 E.01695
G1 X108.392 Y96.07 E.79736
G1 X107.855 Y96.07 E.01695
G1 X125.715 Y113.93 E.79736
G1 X125.178 Y113.93 E.01695
G1 X107.318 Y96.07 E.79736
G1 X106.781 Y96.07 E.01695
G1 X124.641 Y113.93 E.79736
G1 X124.104 Y113.93 E.01695
G1 X106.244 Y96.07 E.79736
G1 X105.707 Y96.07 E.01695
M73 P10 R15
G1 X123.567 Y113.93 E.79736
G1 X123.03 Y113.93 E.01695
G1 X105.17 Y96.07 E.79736
G1 X104.884 Y96.07 E.00903
G1 X104.884 Y96.321 E.00791
G1 X122.493 Y113.93 E.78617
G1 X121.956 Y113.93 E.01695
G1 X104.884 Y96.858 E.7622
G1 X104.884 Y97.394 E.01695
G1 X121.42 Y113.93 E.73823
G1 X120.883 Y113.93 E.01695
G1 X104.884 Y97.931 E.71426
G1 X104.884 Y98.468 E.01695
G1 X120.346 Y113.93 E.69029
G1 X119.809 Y113.93 E.01695
G1 X104.884 Y99.005 E.66632
G1 X104.884 Y99.542 E.01695
M73 P10 R14
G1 X119.272 Y113.93 E.64235
G1 X118.735 Y113.93 E.01695
M73 P11 R14
G1 X104.884 Y100.079 E.61838
G1 X104.884 Y100.616 E.01695
G1 X118.198 Y113.93 E.59441
G1 X117.661 Y113.93 E.01695
G1 X104.884 Y101.153 E.57044
G1 X104.884 Y101.69 E.01695
G1 X117.124 Y113.93 E.54647
G1 X116.587 Y113.93 E.01695
G1 X104.884 Y102.227 E.5225
G1 X104.884 Y102.764 E.01695
G1 X116.05 Y113.93 E.49853
G1 X115.514 Y113.93 E.01695
G1 X104.884 Y103.3 E.47456
G1 X104.884 Y103.837 E.01695
G1 X114.977 Y113.93 E.45059
G1 X114.44 Y113.93 E.01695
G1 X104.884 Y104.374 E.42662
G1 X104.884 Y104.911 E.01695
G1 X113.903 Y113.93 E.40265
G1 X113.366 Y113.93 E.01695
G1 X104.884 Y105.448 E.37867
G1 X104.884 Y105.985 E.01695
G1 X112.829 Y113.93 E.3547
G1 X112.292 Y113.93 E.01695
M73 P12 R14
G1 X104.884 Y106.522 E.33073
G1 X104.884 Y107.059 E.01695
G1 X111.755 Y113.93 E.30676
G1 X111.218 Y113.93 E.01695
G1 X104.884 Y107.596 E.28279
G1 X104.884 Y108.133 E.01695
G1 X110.681 Y113.93 E.25882
G1 X110.144 Y113.93 E.01695
G1 X104.884 Y108.67 E.23485
G1 X104.884 Y109.207 E.01695
G1 X109.607 Y113.93 E.21088
G1 X109.071 Y113.93 E.01695
G1 X104.884 Y109.743 E.18691
G1 X104.884 Y110.28 E.01695
G1 X108.534 Y113.93 E.16294
G1 X107.997 Y113.93 E.01695
G1 X104.884 Y110.817 E.13897
G1 X104.884 Y111.354 E.01695
G1 X107.46 Y113.93 E.115
G1 X106.923 Y113.93 E.01695
G1 X104.884 Y111.891 E.09103
G1 X104.884 Y112.428 E.01695
G1 X106.386 Y113.93 E.06706
G1 X105.849 Y113.93 E.01695
G1 X104.884 Y112.965 E.04309
G1 X104.884 Y113.502 E.01695
G1 X105.482 Y114.1 E.0267
; stop printing object resolution.stl id:0 copy 0
M106 S84.15
;LAYER_CHANGE
;Z:0.55
;HEIGHT:0.35
;BEFORE_LAYER_CHANGE
G92 E0.0
;0.55


;WIPE_START
G1 F8640
G1 X104.884 Y113.502 E-.19526
G1 X104.884 Y112.965 E-.12397
G1 X105.849 Y113.93 E-.31517
G1 X106.386 Y113.93 E-.12398
G1 X106.381 Y113.925 E-.00162
;WIPE_END
G1 E-.04 F2100
G1 Z.6 F10800
;AFTER_LAYER_CHANGE
;0.55
G1 X106.381 Y117.377
G1 Z.55
G1 E.8 F2100
;TYPE:Skirt/Brim
;WIDTH:0.42
G1 F3000
G1 X103.814 Y117.377 E.12883
G1 X102.507 Y116.985 E.06848
G1 X101.631 Y115.94 E.06848
G1 X101.437 Y115 E.04815
G1 X101.437 Y95 E1.00372
G1 X101.829 Y93.693 E.06848
G1 X102.874 Y92.817 E.06848
G1 X103.814 Y92.623 E.04815
G1 X146.4 Y92.623 E2.13722
G1 X147.707 Y93.015 E.06848
G1 X148.583 Y94.06 E.06848
G1 X148.777 Y95 E.04815
G1 X148.777 Y115 E1.00372
G1 X148.385 Y116.307 E.06848
G1 X147.34 Y117.183 E.06848
G1 X146.4 Y117.377 E.04815
G1 X106.441 Y117.377 E2.00538
; printing object resolution.stl id:0 copy 0
;WIPE_START
G1 F8640
G1 X103.814 Y117.377 E-.60658
G1 X103.178 Y117.186 E-.15342
;WIPE_END
G1 E-.04 F2100
G1 Z.95 F10800
G1 X105.142 Y114.26
G1 Z.55
G1 E.8 F2100
M204 S800
;TYPE:Perimeter
;WIDTH:0.43
G1 F3000
G1 X105.142 Y95.74 E.9564
G1 X145.66 Y95.74 E2.09238
G1 X145.66 Y114.26 E.9564
G1 X105.202 Y114.26 E2.08928
M204 S1000
M73 P13 R14
G1 X104.702 Y114.7 F10800
M204 S800
;TYPE:External perimeter
;WIDTH:0.6
G1 F2400
G1 X104.702 Y95.3 E1.48174
G1 X146.1 Y95.3 E3.16187
G1 X146.1 Y114.7 E1.48174
G1 X104.762 Y114.7 E3.15728
M204 S1000
G1 X104.85 Y114.328 F10800
;WIPE_START
G1 F8640
G1 X104.752 Y111.409 E-.76
;WIPE_END
G1 E-.04 F2100
G1 Z.95 F10800
G1 X144.269 Y114.14
G1 Z.55
G1 E.8 F2100
M204 S2000
;TYPE:Solid infill
;WIDTH:0.703825
G1 F3600
G1 X145.259 Y113.15 E.1281
G1 X145.259 Y112.261 E.08134
G1 X143.661 Y113.859 E.20675
G1 X142.772 Y113.859 E.08134
G1 X145.259 Y111.372 E.32179
G1 X145.259 Y110.483 E.08134
G1 X141.883 Y113.859 E.43683
G1 X140.994 Y113.859 E.08134
G1 X145.259 Y109.594 E.55187
G1 X145.259 Y108.704 E.08134
G1 X140.104 Y113.859 E.6669
G1 X139.215 Y113.859 E.08134
G1 X145.259 Y107.815 E.78194
G1 X145.259 Y106.926 E.08134
G1 X138.326 Y113.859 E.89698
G1 X137.437 Y113.859 E.08134
G1 X145.259 Y106.037 E1.01201
G1 X145.259 Y105.148 E.08134
G1 X136.548 Y113.859 E1.12705
G1 X135.659 Y113.859 E.08134
G1 X145.259 Y104.259 E1.24209
G1 X145.259 Y103.37 E.08134
G1 X134.77 Y113.859 E1.35713
G1 X133.88 Y113.859 E.08134
G1 X145.259 Y102.48 E1.47216
G1 X145.259 Y101.591 E.08134
G1 X132.991 Y113.859 E1.5872
G1 X132.102 Y113.859 E.08134
G1 X145.259 Y100.702 E1.70224
G1 X145.259 Y99.813 E.08134
G1 X131.213 Y113.859 E1.81727
G1 X130.324 Y113.859 E.08134
G1 X145.259 Y98.924 E1.93231
G1 X145.259 Y98.035 E.08134
G1 X129.435 Y113.859 E2.04735
G1 X128.546 Y113.859 E.08134
G1 X145.259 Y97.146 E2.16239
G1 X145.259 Y96.256 E.08134
G1 X127.656 Y113.859 E2.27742
G1 X126.767 Y113.859 E.08134
G1 X144.485 Y96.141 E2.29236
G1 X143.596 Y96.141 E.08134
M73 P14 R14
G1 X125.878 Y113.859 E2.29236
G1 X124.989 Y113.859 E.08134
G1 X142.707 Y96.141 E2.29236
G1 X141.818 Y96.141 E.08134
G1 X124.1 Y113.859 E2.29236
G1 X123.211 Y113.859 E.08134
G1 X140.929 Y96.141 E2.29236
G1 X140.04 Y96.141 E.08134
G1 X122.322 Y113.859 E2.29236
G1 X121.433 Y113.859 E.08134
G1 X139.15 Y96.141 E2.29236
G1 X138.261 Y96.141 E.08134
G1 X120.543 Y113.859 E2.29236
G1 X119.654 Y113.859 E.08134
G1 X137.372 Y96.141 E2.29236
G1 X136.483 Y96.141 E.08134
G1 X118.765 Y113.859 E2.29236
G1 X117.876 Y113.859 E.08134
G1 X135.594 Y96.141 E2.29236
G1 X134.705 Y96.141 E.08134
G1 X116.987 Y113.859 E2.29236
G1 X116.098 Y113.859 E.08134
G1 X133.816 Y96.141 E2.29236
G1 X132.926 Y96.141 E.08134
G1 X115.209 Y113.859 E2.29236
G1 X114.319 Y113.859 E.08134
G1 X132.037 Y96.141 E2.29236
G1 X131.148 Y96.141 E.08134
G1 X113.43 Y113.859 E2.29236
G1 X112.541 Y113.859 E.08134
G1 X130.259 Y96.141 E2.29236
G1 X129.37 Y96.141 E.08134
G1 X111.652 Y113.859 E2.29236
G1 X110.763 Y113.859 E.08134
G1 X128.481 Y96.141 E2.29236
G1 X127.592 Y96.141 E.08134
G1 X109.874 Y113.859 E2.29236
G1 X108.985 Y113.859 E.08134
G1 X126.703 Y96.141 E2.29236
G1 X125.813 Y96.141 E.08134
G1 X108.095 Y113.859 E2.29236
G1 X107.206 Y113.859 E.08134
M73 P15 R14
G1 X124.924 Y96.141 E2.29236
G1 X124.035 Y96.141 E.08134
G1 X106.317 Y113.859 E2.29236
G1 X105.544 Y113.859 E.07078
G1 X105.544 Y113.743 E.01056
G1 X123.146 Y96.141 E2.27742
G1 X122.257 Y96.141 E.08134
G1 X105.544 Y112.854 E2.16238
G1 X105.544 Y111.965 E.08134
G1 X121.368 Y96.141 E2.04734
G1 X120.479 Y96.141 E.08134
G1 X105.544 Y111.076 E1.93231
G1 X105.544 Y110.187 E.08134
G1 X119.589 Y96.141 E1.81727
G1 X118.7 Y96.141 E.08134
G1 X105.544 Y109.298 E1.70223
G1 X105.544 Y108.409 E.08134
G1 X117.811 Y96.141 E1.58719
G1 X116.922 Y96.141 E.08134
G1 X105.544 Y107.52 E1.47216
G1 X105.544 Y106.63 E.08134
G1 X116.033 Y96.141 E1.35712
G1 X115.144 Y96.141 E.08134
G1 X105.544 Y105.741 E1.24208
G1 X105.544 Y104.852 E.08134
G1 X114.255 Y96.141 E1.12704
G1 X113.365 Y96.141 E.08134
G1 X105.544 Y103.963 E1.01201
G1 X105.544 Y103.074 E.08134
G1 X112.476 Y96.141 E.89697
G1 X111.587 Y96.141 E.08134
G1 X105.544 Y102.185 E.78193
G1 X105.544 Y101.296 E.08134
G1 X110.698 Y96.141 E.6669
G1 X109.809 Y96.141 E.08134
G1 X105.544 Y100.406 E.55186
G1 X105.544 Y99.517 E.08134
G1 X108.92 Y96.141 E.43682
G1 X108.031 Y96.141 E.08134
G1 X105.544 Y98.628 E.32178
G1 X105.544 Y97.739 E.08134
G1 X107.142 Y96.141 E.20675
G1 X106.252 Y96.141 E.08134
G1 X105.262 Y97.131 E.12809
M204 S1000
; stop printing object resolution.stl id:0 copy 0
M106 S170.85
;LAYER_CHANGE
;Z:0.9
;HEIGHT:0.35
;BEFORE_LAYER_CHANGE
G92 E0.0
;0.9


;WIPE_START
G1 F8640
G1 X106.252 Y96.141 E-.32329
G1 X107.142 Y96.141 E-.2053
G1 X106.433 Y96.85 E-.2314
;WIPE_END
G1 E-.04 F2100
G1 Z.95 F10800
;AFTER_LAYER_CHANGE
;0.9
G1 X106.433 Y92.623
G1 Z.9
G1 E.8 F2100
;TYPE:Skirt/Brim
;WIDTH:0.42
G1 F3000
G1 X146.4 Y92.623 E2.00579
G1 X147.707 Y93.015 E.06848
G1 X148.583 Y94.06 E.06848
G1 X148.777 Y95 E.04815
G1 X148.777 Y115 E1.00372
G1 X148.385 Y116.307 E.06848
G1 X147.34 Y117.183 E.06848
G1 X146.4 Y117.377 E.04815
G1 X103.814 Y117.377 E2.13722
G1 X102.507 Y116.985 E.06848
G1 X101.631 Y115.94 E.06848
G1 X101.437 Y115 E.04815
G1 X101.437 Y95 E1.00372
G1 X101.829 Y93.693 E.06848
G1 X102.874 Y92.817 E.06848
G1 X103.814 Y92.623 E.04815
G1 X106.373 Y92.623 E.12842
; printing object resolution.stl id:0 copy 0
;WIPE_START
G1 F8640
G1 X109.664 Y92.623 E-.76
;WIPE_END
G1 E-.04 F2100
G1 Z1.3 F10800
G1 X105.891 Y95.74
G1 Z.9
M73 P16 R14
G1 E.8 F2100
M204 S800
;TYPE:Perimeter
;WIDTH:0.43
G1 F3000
G1 X145.66 Y95.74 E2.0537
G1 X145.66 Y114.26 E.9564
G1 X105.891 Y114.26 E2.0537
G1 X105.891 Y95.8 E.9533
M204 S1000
G1 X105.451 Y95.3 F10800
M204 S800
;TYPE:External perimeter
;WIDTH:0.6
G1 F2400
G1 X146.1 Y95.3 E3.10466
G1 X146.1 Y114.7 E1.48174
G1 X105.451 Y114.7 E3.10466
G1 X105.451 Y95.36 E1.47715
M204 S1000
G1 X105.847 Y95.359 F10800
;WIPE_START
G1 F8640
G1 X108.743 Y95.355 E-.76
;WIPE_END
G1 E-.04 F2100
G1 Z1.3 F10800
G1 X145.54 Y97.134
G1 Z.9
G1 E.8 F2100
M204 S2000
;TYPE:Solid infill
;WIDTH:0.70535
G1 F3600
G1 X144.547 Y96.141 E.12883
