; generated by PrusaSlicer 2.5.0 on 2022-11-19 at 20:23:04 UTC

; 

; external perimeters extrusion width = 0.45mm
; perimeters extrusion width = 0.45mm
; infill extrusion width = 0.50mm
; solid infill extrusion width = 0.45mm
; top infill extrusion width = 0.45mm
; first layer extrusion width = 0.42mm

M73 P0 R120
M201 X9000 Y9000 Z500 E10000 ; sets maximum accelerations, mm/sec^2
M203 X500 Y500 Z12 E120 ; sets maximum feedrates, mm / sec
M204 P2000 R1500 T2000 ; sets acceleration (P, T) and retract acceleration (R), mm/sec^2
M205 X10.00 Y10.00 Z0.20 E2.50 ; sets the jerk limits, mm/sec
M205 S0 T0 ; sets the minimum extruding and travel feed rate, mm/sec
M107
;TYPE:Custom
M862.3 P "MK2S" ; printer model check
M862.1 P0.4 ; nozzle diameter check
M115 U3.2.3 ; tell printer latest fw version
G90 ; use absolute coordinates
M83 ; extruder relative mode
M204 S2000 T1500 ; MK2 firmware only supports the old M204 format
M104 S215 ; set extruder temp
M140 S60 ; set bed temp
M190 S60 ; wait for bed temp
M109 S215 ; wait for extruder temp
G28 W ; home all without mesh bed level
G80 ; mesh bed leveling
G1 Y-3.0 F1000.0 ; go outside print area
G92 E0.0
G1 X60.0 E9.0  F1000.0 ; intro line
G1 X100.0 E12.5 F1000.0 ; intro line
G92 E0.0
G21 ; set units to millimeters
G90 ; use absolute coordinates
M83 ; use relative distances for extrusion
M900 K0.05 ; Filament gcode LA 1.5
M900 K30 ; Filament gcode LA 1.0
M107
;LAYER_CHANGE
;Z:0.2
;HEIGHT:0.2
;BEFORE_LAYER_CHANGE
G92 E0.0
;0.2


G1 E-.8 F2100
G1 Z.4 F10800
;AFTER_LAYER_CHANGE
;0.2
G1 X101.829 Y93.693
G1 Z.2
G1 E.8 F2100
M204 S500
;TYPE:Skirt/Brim
;WIDTH:0.42
G1 F1200
G1 X102.874 Y92.817 E.04278
G1 X103.814 Y92.623 E.03008
G1 X146.4 Y92.623 E1.33525
G1 X147.707 Y93.015 E.04278
G1 X148.583 Y94.06 E.04278
G1 X148.777 Y95 E.03008
G1 X148.777 Y115 E.62709
G1 X148.385 Y116.307 E.04278
G1 X147.34 Y117.183 E.04278
G1 X146.4 Y117.377 E.03008
G1 X103.814 Y117.377 E1.33525
G1 X102.507 Y116.985 E.04278
G1 X101.631 Y115.94 E.04278
G1 X101.437 Y115 E.03008
G1 X101.437 Y95 E.62709
G1 X101.811 Y93.75 E.0409
M204 S1000
; printing object resolution.stl id:0 copy 0
;WIPE_START
G1 F8640
G1 X102.874 Y92.817 E-.32671
G1 X103.814 Y92.623 E-.22155
G1 X104.731 Y92.623 E-.21174
;WIPE_END
G1 E-.04 F2100
G1 Z.6 F10800
G1 X104.978 Y96.164
G1 Z.2
G1 E.8 F2100
M204 S500
;TYPE:Perimeter
;WIDTH:0.419999
G1 F1200
G1 X145.236 Y96.164 E1.26225
G1 X145.236 Y113.836 E.55408
G1 X104.978 Y113.836 E1.26225
G1 X104.978 Y96.224 E.5522
M204 S1000
G1 X104.601 Y95.787 F10800
M204 S500
G1 F1200
G1 X145.613 Y95.787 E1.2859
G1 X145.613 Y114.213 E.57773
G1 X104.601 Y114.213 E1.2859
G1 X104.601 Y95.847 E.57585
M204 S1000
G1 X104.224 Y95.41 F10800
M204 S500
;TYPE:External perimeter
G1 F1200
G1 X145.99 Y95.41 E1.30954
G1 X145.99 Y114.59 E.60137
G1 X104.224 Y114.59 E1.30954
G1 X104.224 Y95.47 E.59949
M204 S1000
G1 X104.62 Y95.467 F10800
;WIPE_START
G1 F8640
G1 X107.515 Y95.465 E-.76
;WIPE_END
G1 E-.04 F2100
G1 Z.6 F10800
G1 X145.123 Y97.046
G1 Z.2
G1 E.8 F2100
M204 S500
;TYPE:Solid infill
;WIDTH:0.423253
G1 F1200
G1 X144.523 Y96.447 E.02681
G1 X143.985 Y96.447 E.01701
G1 X144.953 Y97.415 E.04328
G1 X144.953 Y97.952 E.01701
G1 X143.448 Y96.447 E.06733
G1 X142.91 Y96.447 E.01701
G1 X144.953 Y98.49 E.09139
G1 X144.953 Y99.028 E.01701
G1 X142.372 Y96.447 E.11545
G1 X141.834 Y96.447 E.01701
G1 X144.953 Y99.566 E.1395
G1 X144.953 Y100.104 E.01701
G1 X141.296 Y96.447 E.16356
G1 X140.758 Y96.447 E.01701
G1 X144.953 Y100.642 E.18761
G1 X144.953 Y101.18 E.01701
G1 X140.22 Y96.447 E.21167
G1 X139.682 Y96.447 E.01701
G1 X144.953 Y101.718 E.23573
G1 X144.953 Y102.255 E.01701
G1 X139.145 Y96.447 E.25978
G1 X138.607 Y96.447 E.01701
G1 X144.953 Y102.793 E.28384
G1 X144.953 Y103.331 E.01701
G1 X138.069 Y96.447 E.30789
G1 X137.531 Y96.447 E.01701
G1 X144.953 Y103.869 E.33195
G1 X144.953 Y104.407 E.01701
G1 X136.993 Y96.447 E.35601
G1 X136.455 Y96.447 E.01701
G1 X144.953 Y104.945 E.38006
G1 X144.953 Y105.483 E.01701
G1 X135.917 Y96.447 E.40412
G1 X135.379 Y96.447 E.01701
G1 X144.953 Y106.021 E.42817
G1 X144.953 Y106.558 E.01701
G1 X134.842 Y96.447 E.45223
G1 X134.304 Y96.447 E.01701
G1 X144.953 Y107.096 E.47629
G1 X144.953 Y107.634 E.01701
G1 X133.766 Y96.447 E.50034
G1 X133.228 Y96.447 E.01701
G1 X144.953 Y108.172 E.5244
G1 X144.953 Y108.71 E.01701
G1 X132.69 Y96.447 E.54845
G1 X132.152 Y96.447 E.01701
G1 X144.953 Y109.248 E.57251
G1 X144.953 Y109.786 E.01701
G1 X131.614 Y96.447 E.59656
G1 X131.076 Y96.447 E.01701
G1 X144.953 Y110.324 E.62062
G1 X144.953 Y110.861 E.01701
G1 X130.539 Y96.447 E.64468
G1 X130.001 Y96.447 E.01701
G1 X144.953 Y111.399 E.66873
G1 X144.953 Y111.937 E.01701
G1 X129.463 Y96.447 E.69279
G1 X128.925 Y96.447 E.01701
M73 P0 R119
G1 X144.953 Y112.475 E.71684
G1 X144.953 Y113.013 E.01701
G1 X128.387 Y96.447 E.7409
G1 X127.849 Y96.447 E.01701
G1 X144.953 Y113.551 E.76496
G1 X144.417 Y113.553 E.01694
G1 X127.311 Y96.447 E.76506
G1 X126.773 Y96.447 E.01701
G1 X143.88 Y113.553 E.76506
G1 X143.342 Y113.553 E.01701
G1 X126.236 Y96.447 E.76506
G1 X125.698 Y96.447 E.01701
G1 X142.804 Y113.553 E.76506
G1 X142.266 Y113.553 E.01701
G1 X125.16 Y96.447 E.76506
G1 X124.622 Y96.447 E.01701
G1 X141.728 Y113.553 E.76506
G1 X141.19 Y113.553 E.01701
G1 X124.084 Y96.447 E.76506
G1 X123.546 Y96.447 E.01701
G1 X140.652 Y113.553 E.76506
G1 X140.114 Y113.553 E.01701
G1 X123.008 Y96.447 E.76506
G1 X122.47 Y96.447 E.01701
G1 X139.577 Y113.553 E.76506
G1 X139.039 Y113.553 E.01701
G1 X121.933 Y96.447 E.76506
G1 X121.395 Y96.447 E.01701
G1 X138.501 Y113.553 E.76506
G1 X137.963 Y113.553 E.01701
G1 X120.857 Y96.447 E.76506
G1 X120.319 Y96.447 E.01701
G1 X137.425 Y113.553 E.76506
G1 X136.887 Y113.553 E.01701
G1 X119.781 Y96.447 E.76506
G1 X119.243 Y96.447 E.01701
M73 P1 R119
G1 X136.349 Y113.553 E.76506
G1 X135.811 Y113.553 E.01701
G1 X118.705 Y96.447 E.76506
G1 X118.168 Y96.447 E.01701
G1 X135.274 Y113.553 E.76506
G1 X134.736 Y113.553 E.01701
G1 X117.63 Y96.447 E.76506
G1 X117.092 Y96.447 E.01701
G1 X134.198 Y113.553 E.76506
G1 X133.66 Y113.553 E.01701
G1 X116.554 Y96.447 E.76506
G1 X116.016 Y96.447 E.01701
G1 X133.122 Y113.553 E.76506
G1 X132.584 Y113.553 E.01701
G1 X115.478 Y96.447 E.76506
G1 X114.94 Y96.447 E.01701
G1 X132.046 Y113.553 E.76506
G1 X131.508 Y113.553 E.01701
G1 X114.402 Y96.447 E.76506
G1 X113.865 Y96.447 E.01701
G1 X130.971 Y113.553 E.76506
G1 X130.433 Y113.553 E.01701
G1 X113.327 Y96.447 E.76506
G1 X112.789 Y96.447 E.01701
G1 X129.895 Y113.553 E.76506
G1 X129.357 Y113.553 E.01701
G1 X112.251 Y96.447 E.76506
G1 X111.713 Y96.447 E.01701
G1 X128.819 Y113.553 E.76506
G1 X128.281 Y113.553 E.01701
G1 X111.175 Y96.447 E.76506
G1 X110.637 Y96.447 E.01701
G1 X127.743 Y113.553 E.76506
G1 X127.206 Y113.553 E.01701
G1 X110.099 Y96.447 E.76506
G1 X109.562 Y96.447 E.01701
G1 X126.668 Y113.553 E.76506
G1 X126.13 Y113.553 E.01701
G1 X109.024 Y96.447 E.76506
G1 X108.486 Y96.447 E.01701
G1 X125.592 Y113.553 E.76506
G1 X125.054 Y113.553 E.01701
G1 X107.948 Y96.447 E.76506
G1 X107.41 Y96.447 E.01701
G1 X124.516 Y113.553 E.76506
G1 X123.978 Y113.553 E.01701
G1 X106.872 Y96.447 E.76506
G1 X106.334 Y96.447 E.01701
G1 X123.44 Y113.553 E.76506
G1 X122.903 Y113.553 E.01701
G1 X105.796 Y96.447 E.76506
G1 X105.261 Y96.447 E.01694
G1 X122.365 Y113.553 E.765
G1 X121.827 Y113.553 E.01701
G1 X105.261 Y96.987 E.7409
G1 X105.261 Y97.525 E.01701
G1 X121.289 Y113.553 E.71684
G1 X120.751 Y113.553 E.01701
G1 X105.261 Y98.063 E.69278
G1 X105.261 Y98.601 E.01701
M73 P1 R118
G1 X120.213 Y113.553 E.66873
G1 X119.675 Y113.553 E.01701
G1 X105.261 Y99.139 E.64467
G1 X105.261 Y99.677 E.01701
G1 X119.137 Y113.553 E.62062
G1 X118.6 Y113.553 E.01701
G1 X105.261 Y100.214 E.59656
G1 X105.261 Y100.752 E.01701
G1 X118.062 Y113.553 E.5725
G1 X117.524 Y113.553 E.01701
G1 X105.261 Y101.29 E.54845
G1 X105.261 Y101.828 E.01701
G1 X116.986 Y113.553 E.52439
G1 X116.448 Y113.553 E.01701
G1 X105.261 Y102.366 E.50034
G1 X105.261 Y102.904 E.01701
G1 X115.91 Y113.553 E.47628
G1 X115.372 Y113.553 E.01701
G1 X105.261 Y103.442 E.45222
G1 X105.261 Y103.98 E.01701
G1 X114.834 Y113.553 E.42817
G1 X114.297 Y113.553 E.01701
G1 X105.261 Y104.517 E.40411
G1 X105.261 Y105.055 E.01701
G1 X113.759 Y113.553 E.38006
G1 X113.221 Y113.553 E.01701
G1 X105.261 Y105.593 E.356
G1 X105.261 Y106.131 E.01701
G1 X112.683 Y113.553 E.33194
G1 X112.145 Y113.553 E.01701
G1 X105.261 Y106.669 E.30789
G1 X105.261 Y107.207 E.01701
G1 X111.607 Y113.553 E.28383
G1 X111.069 Y113.553 E.01701
G1 X105.261 Y107.745 E.25978
G1 X105.261 Y108.283 E.01701
G1 X110.531 Y113.553 E.23572
G1 X109.994 Y113.553 E.01701
G1 X105.261 Y108.82 E.21166
G1 X105.261 Y109.358 E.01701
G1 X109.456 Y113.553 E.18761
G1 X108.918 Y113.553 E.01701
G1 X105.261 Y109.896 E.16355
G1 X105.261 Y110.434 E.01701
G1 X108.38 Y113.553 E.1395
G1 X107.842 Y113.553 E.01701
G1 X105.261 Y110.972 E.11544
G1 X105.261 Y111.51 E.01701
G1 X107.304 Y113.553 E.09139
G1 X106.766 Y113.553 E.01701
G1 X105.261 Y112.048 E.06733
G1 X105.261 Y112.585 E.01701
G1 X106.229 Y113.553 E.04327
G1 X105.691 Y113.553 E.01701
G1 X105.091 Y112.954 E.02681
M204 S1000
; stop printing object resolution.stl id:0 copy 0
M106 S84.15
;LAYER_CHANGE
;Z:0.25
;HEIGHT:0.05
;BEFORE_LAYER_CHANGE
G92 E0.0
;0.25


;WIPE_START
G1 F8640
G1 X105.691 Y113.553 E-.19572
G1 X106.229 Y113.553 E-.1242
G1 X105.261 Y112.585 E-.31595
G1 X105.261 Y112.048 E-.12413
;WIPE_END
G1 E-.04 F2100
G1 Z.6 F10800
;AFTER_LAYER_CHANGE
;0.25
G1 X101.437 Y112.048
G1 Z.25
G1 E.8 F2100
;TYPE:Skirt/Brim
;WIDTH:0.42
G1 F1800
G1 X101.437 Y95 E.14504
G1 X101.829 Y93.693 E.01161
G1 X102.874 Y92.817 E.01161
G1 X103.814 Y92.623 E.00816
G1 X146.4 Y92.623 E.36231
G1 X147.707 Y93.015 E.01161
G1 X148.583 Y94.06 E.01161
G1 X148.777 Y95 E.00816
G1 X148.777 Y115 E.17015
G1 X148.385 Y116.307 E.01161
G1 X147.34 Y117.183 E.01161
G1 X146.4 Y117.377 E.00816
G1 X103.814 Y117.377 E.36231
G1 X102.507 Y116.985 E.01161
G1 X101.631 Y115.94 E.01161
G1 X101.437 Y115 E.00816
G1 X101.437 Y112.108 E.02461
; printing object resolution.stl id:0 copy 0
;WIPE_START
G1 F8640
G1 X101.437 Y108.816 E-.76
;WIPE_END
G1 E-.04 F2100
G1 Z.65 F10800
G1 X105.185 Y113.896
G1 Z.25
G1 E.8 F2100
M204 S300
;TYPE:Perimeter
;WIDTH:0.449999
G1 F1800
G1 X105.185 Y96.104 E.16247
G1 X145.296 Y96.104 E.36627
G1 X145.296 Y113.896 E.16247
G1 X105.245 Y113.896 E.36572
M204 S1000
G1 X104.746 Y114.336 F10800
M204 S300
G1 F1800
G1 X104.746 Y95.664 E.1705
G1 X145.736 Y95.664 E.37429
G1 X145.736 Y114.336 E.1705
G1 X104.806 Y114.336 E.37375
M204 S1000
G1 X104.306 Y114.775 F10800
M204 S300
;TYPE:External perimeter
G1 F1200
G1 X104.306 Y95.225 E.17852
G1 X146.175 Y95.225 E.38232
G1 X146.175 Y114.775 E.17852
G1 X104.366 Y114.775 E.38177
M204 S1000
G1 X104.454 Y114.403 F10800
;WIPE_START
M73 P2 R118
G1 F8640
G1 X104.356 Y111.484 E-.76
;WIPE_END
G1 E-.04 F2100
G1 Z.65 F10800
G1 X144.272 Y113.765
G1 Z.25
G1 E.8 F2100
M204 S800
;TYPE:Solid infill
;WIDTH:0.452403
G1 F1800
G1 X144.967 Y113.069 E.00903
G1 X144.967 Y112.445 E.00573
G1 X143.845 Y113.567 E.01457
G1 X143.22 Y113.567 E.00573
G1 X144.967 Y111.82 E.02268
G1 X144.967 Y111.195 E.00573
G1 X142.595 Y113.567 E.03079
G1 X141.971 Y113.567 E.00573
G1 X144.967 Y110.571 E.0389
G1 X144.967 Y109.946 E.00573
G1 X141.346 Y113.567 E.04701
G1 X140.722 Y113.567 E.00573
G1 X144.967 Y109.322 E.05512
G1 X144.967 Y108.697 E.00573
G1 X140.097 Y113.567 E.06323
G1 X139.472 Y113.567 E.00573
G1 X144.967 Y108.072 E.07134
G1 X144.967 Y107.448 E.00573
G1 X138.848 Y113.567 E.07946
G1 X138.223 Y113.567 E.00573
G1 X144.967 Y106.823 E.08757
G1 X144.967 Y106.198 E.00573
G1 X137.598 Y113.567 E.09568
G1 X136.974 Y113.567 E.00573
G1 X144.967 Y105.574 E.10379
G1 X144.967 Y104.949 E.00573
G1 X136.349 Y113.567 E.1119
G1 X135.725 Y113.567 E.00573
G1 X144.967 Y104.325 E.12001
G1 X144.967 Y103.7 E.00573
G1 X135.1 Y113.567 E.12812
G1 X134.475 Y113.567 E.00573
G1 X144.967 Y103.075 E.13623
G1 X144.967 Y102.451 E.00573
G1 X133.851 Y113.567 E.14434
G1 X133.226 Y113.567 E.00573
G1 X144.967 Y101.826 E.15245
G1 X144.967 Y101.202 E.00573
G1 X132.602 Y113.567 E.16056
G1 X131.977 Y113.567 E.00573
G1 X144.967 Y100.577 E.16867
G1 X144.967 Y99.952 E.00573
G1 X131.352 Y113.567 E.17678
G1 X130.728 Y113.567 E.00573
G1 X144.967 Y99.328 E.18489
G1 X144.967 Y98.703 E.00573
G1 X130.103 Y113.567 E.193
G1 X129.478 Y113.567 E.00573
G1 X144.967 Y98.078 E.20111
G1 X144.967 Y97.454 E.00573
G1 X128.854 Y113.567 E.20922
G1 X128.229 Y113.567 E.00573
G1 X144.967 Y96.829 E.21733
G1 X144.967 Y96.433 E.00364
G1 X144.739 Y96.433 E.0021
G1 X127.605 Y113.567 E.22247
G1 X126.98 Y113.567 E.00573
G1 X144.114 Y96.433 E.22247
G1 X143.489 Y96.433 E.00573
G1 X126.355 Y113.567 E.22247
G1 X125.731 Y113.567 E.00573
G1 X142.865 Y96.433 E.22247
G1 X142.24 Y96.433 E.00573
G1 X125.106 Y113.567 E.22247
G1 X124.481 Y113.567 E.00573
G1 X141.615 Y96.433 E.22247
G1 X140.991 Y96.433 E.00573
G1 X123.857 Y113.567 E.22247
G1 X123.232 Y113.567 E.00573
G1 X140.366 Y96.433 E.22247
G1 X139.742 Y96.433 E.00573
G1 X122.608 Y113.567 E.22247
G1 X121.983 Y113.567 E.00573
G1 X139.117 Y96.433 E.22247
G1 X138.492 Y96.433 E.00573
G1 X121.358 Y113.567 E.22247
G1 X120.734 Y113.567 E.00573
G1 X137.868 Y96.433 E.22247
G1 X137.243 Y96.433 E.00573
G1 X120.109 Y113.567 E.22247
G1 X119.484 Y113.567 E.00573
M73 P2 R117
G1 X136.619 Y96.433 E.22247
G1 X135.994 Y96.433 E.00573
G1 X118.86 Y113.567 E.22247
G1 X118.235 Y113.567 E.00573
G1 X135.369 Y96.433 E.22247
G1 X134.745 Y96.433 E.00573
G1 X117.611 Y113.567 E.22247
G1 X116.986 Y113.567 E.00573
G1 X134.12 Y96.433 E.22247
G1 X133.495 Y96.433 E.00573
G1 X116.361 Y113.567 E.22247
G1 X115.737 Y113.567 E.00573
G1 X132.871 Y96.433 E.22247
G1 X132.246 Y96.433 E.00573
G1 X115.112 Y113.567 E.22247
G1 X114.488 Y113.567 E.00573
G1 X131.622 Y96.433 E.22247
G1 X130.997 Y96.433 E.00573
G1 X113.863 Y113.567 E.22247
G1 X113.238 Y113.567 E.00573
G1 X130.372 Y96.433 E.22247
G1 X129.748 Y96.433 E.00573
G1 X112.614 Y113.567 E.22247
G1 X111.989 Y113.567 E.00573
G1 X129.123 Y96.433 E.22247
G1 X128.498 Y96.433 E.00573
G1 X111.364 Y113.567 E.22247
G1 X110.74 Y113.567 E.00573
G1 X127.874 Y96.433 E.22247
G1 X127.249 Y96.433 E.00573
G1 X110.115 Y113.567 E.22247
G1 X109.491 Y113.567 E.00573
G1 X126.625 Y96.433 E.22247
G1 X126 Y96.433 E.00573
G1 X108.866 Y113.567 E.22247
G1 X108.241 Y113.567 E.00573
G1 X125.375 Y96.433 E.22247
G1 X124.751 Y96.433 E.00573
G1 X107.617 Y113.567 E.22247
G1 X106.992 Y113.567 E.00573
G1 X124.126 Y96.433 E.22247
G1 X123.501 Y96.433 E.00573
G1 X106.367 Y113.567 E.22247
G1 X105.743 Y113.567 E.00573
G1 X122.877 Y96.433 E.22247
G1 X122.252 Y96.433 E.00573
G1 X105.514 Y113.171 E.21733
G1 X105.514 Y112.546 E.00573
G1 X121.628 Y96.433 E.20922
G1 X121.003 Y96.433 E.00573
G1 X105.514 Y111.922 E.20111
G1 X105.514 Y111.297 E.00573
G1 X120.378 Y96.433 E.193
G1 X119.754 Y96.433 E.00573
G1 X105.514 Y110.672 E.18489
G1 X105.514 Y110.048 E.00573
G1 X119.129 Y96.433 E.17678
G1 X118.505 Y96.433 E.00573
G1 X105.514 Y109.423 E.16867
G1 X105.514 Y108.798 E.00573
G1 X117.88 Y96.433 E.16056
G1 X117.255 Y96.433 E.00573
G1 X105.514 Y108.174 E.15245
G1 X105.514 Y107.549 E.00573
G1 X116.631 Y96.433 E.14434
G1 X116.006 Y96.433 E.00573
G1 X105.514 Y106.925 E.13623
G1 X105.514 Y106.3 E.00573
G1 X115.381 Y96.433 E.12812
G1 X114.757 Y96.433 E.00573
G1 X105.514 Y105.675 E.12001
G1 X105.514 Y105.051 E.00573
G1 X114.132 Y96.433 E.1119
G1 X113.508 Y96.433 E.00573
G1 X105.514 Y104.426 E.10378
G1 X105.514 Y103.801 E.00573
G1 X112.883 Y96.433 E.09567
G1 X112.258 Y96.433 E.00573
G1 X105.514 Y103.177 E.08756
G1 X105.514 Y102.552 E.00573
G1 X111.634 Y96.433 E.07945
G1 X111.009 Y96.433 E.00573
G1 X105.514 Y101.928 E.07134
G1 X105.514 Y101.303 E.00573
G1 X110.384 Y96.433 E.06323
G1 X109.76 Y96.433 E.00573
G1 X105.514 Y100.678 E.05512
G1 X105.514 Y100.054 E.00573
G1 X109.135 Y96.433 E.04701
G1 X108.511 Y96.433 E.00573
G1 X105.514 Y99.429 E.0389
G1 X105.514 Y98.804 E.00573
G1 X107.886 Y96.433 E.03079
G1 X107.261 Y96.433 E.00573
G1 X105.514 Y98.18 E.02268
G1 X105.514 Y97.555 E.00573
G1 X106.637 Y96.433 E.01457
G1 X106.012 Y96.433 E.00573
G1 X105.317 Y97.128 E.00903
